; generated by PrusaSlicer 2.5.0+win64 on 2022-10-03 at 18:39:04 UTC


;
;
; 

; external perimeters extrusion width = 0.45mm
; perimeters extrusion width = 0.45mm
; infill extrusion width = 0.45mm
; solid infill extrusion width = 0.45mm
; top infill extrusion width = 0.40mm
; first layer extrusion width = 0.42mm

M73 P0 R6
M73 Q0 S6
M201 X1000 Y1000 Z200 E5000 ; sets maximum accelerations, mm/sec^2
M203 X200 Y200 Z12 E120 ; sets maximum feedrates, mm / sec
M204 P1250 R1250 T1250 ; sets acceleration (P, T) and retract acceleration (R), mm/sec^2
M205 X8.00 Y8.00 Z0.40 E4.50 ; sets the jerk limits, mm/sec
M205 S0 T0 ; sets the minimum extruding and travel feed rate, mm/sec
M107
;TYPE:Custom
M862.3 P "MK3S" ; printer model check
M862.1 P0.4 ; nozzle diameter check
M115 U3.11.0 ; tell printer latest fw version
G90 ; use absolute coordinates
M83 ; extruder relative mode
M104 S230 ; set extruder temp
M140 S85 ; set bed temp
M190 S85 ; wait for bed temp
M109 S230 ; wait for extruder temp
G28 W ; home all without mesh bed level
G80 ; mesh bed leveling

G1 Z0.2 F720
G1 Y-3 F1000 ; go outside print area
G92 E0
G1 X60 E9 F1000 ; intro line
G1 X100 E12.5 F1000 ; intro line

G92 E0
M221 S95

; Don't change E values below. Excessive value can damage the printer.
M907 E430 ; set extruder motor current
G21 ; set units to millimeters
G90 ; use absolute coordinates
M83 ; use relative distances for extrusion
M900 K0.08 ; Filament gcode LA 1.5
M900 K45 ; Filament gcode LA 1.0
M107
;LAYER_CHANGE
;Z:0.2
;HEIGHT:0.2
;BEFORE_LAYER_CHANGE
G92 E0.0
;0.2


G1 E-1 F2100
M73 P1 R6
M73 Q1 S6
G1 Z.2 F720
;AFTER_LAYER_CHANGE
;0.2
G1 Z.4
G1 X109.139 Y100.133 F10800
G1 Z.2 F720
G1 E1 F2100
M204 S800
;TYPE:Skirt/Brim
;WIDTH:0.42
G1 F1200
G1 X110.205 Y99.119 E.04612
G1 X111.5 Y98.796 E.04186
G1 X138.5 Y98.796 E.84657
M73 Q2 S6
G1 X139.917 Y99.189 E.04612
M73 P2 R6
G1 X140.931 Y100.255 E.04612
G1 X141.254 Y101.55 E.04186
G1 X141.254 Y103.55 E.06271
G1 X140.428 Y105.517 E.0669
G1 X135.428 Y110.417 E.2195
G1 X134.14 Y111.129 E.04612
G1 X133.128 Y111.179 E.03179
G1 X111.128 Y108.179 E.69618
G1 X109.777 Y107.598 E.04612
G1 X108.917 Y106.405 E.04612
G1 X108.746 Y105.45 E.03042
G1 X108.746 Y101.55 E.12228
G1 X109.123 Y100.19 E.04424
M204 S1000
G1 X109.497 Y100.302 F10800
M204 S800
G1 F1200
M73 Q3 S6
G1 X109.515 Y100.243 E.00195
G1 X110.56 Y99.367 E.04278
G1 X111.5 Y99.173 E.03008
G1 X138.5 Y99.173 E.84657
G1 X139.807 Y99.565 E.04278
M73 P3 R6
G1 X140.683 Y100.61 E.04278
G1 X140.877 Y101.55 E.03008
G1 X140.877 Y103.55 E.06271
G1 X140.164 Y105.248 E.05774
G1 X135.164 Y110.148 E.2195
G1 X133.956 Y110.783 E.04278
G1 X133.179 Y110.805 E.02438
G1 X111.179 Y107.805 E.69618
G1 X109.937 Y107.241 E.04278
G1 X109.123 Y105.45 E.06167
G1 X109.123 Y101.55 E.12228
G1 X109.479 Y100.36 E.03895
M204 S1000
; printing object clip-small.stl id:0 copy 0
;WIPE_START
G1 F8640
M73 Q4 S6
G1 X109.515 Y100.243 E-.0282
G1 X110.56 Y99.367 E-.31505
G1 X111.5 Y99.173 E-.22155
G1 X113.168 Y99.173 E-.3852
;WIPE_END
G1 E-.05 F2100
G1 Z.4 F720
G1 X112.287 Y102.337 F10800
G1 Z.2 F720
G1 E1 F2100
M204 S800
;TYPE:Perimeter
;WIDTH:0.419999
M73 P4 R6
G1 F1200
G1 X137.713 Y102.337 E.79721
G1 X137.713 Y103.22 E.02767
G1 X134.596 Y106.283 E.13704
G1 X134.238 Y106.682 E.0168
G1 X134.262 Y106.463 E.00689
G1 X134.287 Y105.24 E.03835
G1 X134.229 Y104.979 E.00839
G1 X134.11 Y104.818 E.00629
G1 X133.938 Y104.706 E.00643
G1 X133.722 Y104.663 E.00692
G1 X112.287 Y104.663 E.67207
G1 X112.287 Y102.397 E.07104
M204 S1000
G1 X111.91 Y101.96 F10800
M204 S800
;TYPE:External perimeter
G1 F1200
G1 X138.09 Y101.96 E.82085
G1 X138.09 Y103.378 E.04446
M73 P5 R6
M73 Q5 S6
G1 X134.883 Y106.528 E.14096
G1 X134.546 Y106.901 E.01575
G1 X134.048 Y107.601 E.02692
G1 X133.721 Y107.94 E.01478
G1 X133.71 Y107.473 E.01465
G1 X133.817 Y106.978 E.01586
G1 X133.885 Y106.456 E.01653
G1 X133.91 Y105.233 E.03835
G1 X133.851 Y105.092 E.00479
G1 X133.722 Y105.04 E.00437
G1 X111.91 Y105.04 E.68389
G1 X111.91 Y102.02 E.09469
M204 S1000
G1 X112.31 Y101.979 F10800
;WIPE_START
G1 F8640
G1 X116.024 Y102.011 E-.95
;WIPE_END
G1 E-.05 F2100
G1 Z.4 F720
G1 X137.577 Y103.195 F10800
G1 Z.2 F720
G1 E1 F2100
M204 S800
;TYPE:Solid infill
;WIDTH:0.422465
G1 F1200
G1 X137.002 Y102.62 E.02566
G1 X136.465 Y102.62 E.01694
G1 X137.186 Y103.341 E.03218
G1 X136.916 Y103.607 E.01198
G1 X135.928 Y102.62 E.04405
G1 X135.392 Y102.62 E.01694
G1 X136.645 Y103.873 E.05593
G1 X136.374 Y104.139 E.01198
G1 X134.855 Y102.62 E.0678
G1 X134.318 Y102.62 E.01694
G1 X136.103 Y104.405 E.07968
G1 X135.833 Y104.671 E.01198
M73 Q6 S6
G1 X133.781 Y102.62 E.09155
G1 X133.245 Y102.62 E.01694
G1 X135.562 Y104.937 E.10343
G1 X135.291 Y105.203 E.01198
M73 P6 R6
G1 X132.708 Y102.62 E.1153
G1 X132.171 Y102.62 E.01694
G1 X135.021 Y105.469 E.12717
G1 X134.75 Y105.735 E.01198
G1 X134.397 Y105.383 E.01573
M204 S1000
;WIPE_START
G1 F8640
G1 X134.75 Y105.735 E-.11512
G1 X135.021 Y105.469 E-.08764
G1 X132.732 Y103.181 E-.74724
;WIPE_END
G1 E-.05 F2100
G1 Z.4 F720
G1 X133.565 Y104.55 F10800
G1 Z.2 F720
G1 E1 F2100
M204 S800
G1 F1200
G1 X131.634 Y102.62 E.08615
G1 X131.098 Y102.62 E.01694
G1 X132.858 Y104.38 E.07857
G1 X132.321 Y104.38 E.01694
G1 X130.561 Y102.62 E.07857
G1 X130.024 Y102.62 E.01694
M73 P6 R5
G1 X131.785 Y104.38 E.07857
G1 X131.248 Y104.38 E.01694
G1 X129.487 Y102.62 E.07857
G1 X128.951 Y102.62 E.01694
G1 X130.711 Y104.38 E.07857
G1 X130.174 Y104.38 E.01694
G1 X128.414 Y102.62 E.07857
M73 Q6 S5
G1 X127.877 Y102.62 E.01694
G1 X129.638 Y104.38 E.07857
G1 X129.101 Y104.38 E.01694
G1 X127.34 Y102.62 E.07857
G1 X126.804 Y102.62 E.01694
G1 X128.564 Y104.38 E.07857
G1 X128.027 Y104.38 E.01694
G1 X126.267 Y102.62 E.07857
G1 X125.73 Y102.62 E.01694
G1 X127.49 Y104.38 E.07857
G1 X126.954 Y104.38 E.01694
G1 X125.193 Y102.62 E.07857
G1 X124.657 Y102.62 E.01694
G1 X126.417 Y104.38 E.07857
G1 X125.88 Y104.38 E.01694
G1 X124.12 Y102.62 E.07857
G1 X123.583 Y102.62 E.01694
G1 X125.343 Y104.38 E.07857
G1 X124.807 Y104.38 E.01694
M73 Q7 S5
G1 X123.046 Y102.62 E.07857
G1 X122.51 Y102.62 E.01694
G1 X124.27 Y104.38 E.07857
G1 X123.733 Y104.38 E.01694
M73 P7 R5
G1 X121.973 Y102.62 E.07857
G1 X121.436 Y102.62 E.01694
G1 X123.196 Y104.38 E.07857
G1 X122.66 Y104.38 E.01694
G1 X120.899 Y102.62 E.07857
G1 X120.363 Y102.62 E.01694
G1 X122.123 Y104.38 E.07857
G1 X121.586 Y104.38 E.01694
G1 X119.826 Y102.62 E.07857
G1 X119.289 Y102.62 E.01694
G1 X121.049 Y104.38 E.07857
G1 X120.513 Y104.38 E.01694
G1 X118.752 Y102.62 E.07857
G1 X118.215 Y102.62 E.01694
G1 X119.976 Y104.38 E.07857
G1 X119.439 Y104.38 E.01694
G1 X117.679 Y102.62 E.07857
G1 X117.142 Y102.62 E.01694
G1 X118.902 Y104.38 E.07857
G1 X118.366 Y104.38 E.01694
G1 X116.605 Y102.62 E.07857
G1 X116.068 Y102.62 E.01694
G1 X117.829 Y104.38 E.07857
G1 X117.292 Y104.38 E.01694
G1 X115.532 Y102.62 E.07856
G1 X114.995 Y102.62 E.01694
G1 X116.755 Y104.38 E.07856
G1 X116.218 Y104.38 E.01694
G1 X114.458 Y102.62 E.07856
G1 X113.921 Y102.62 E.01694
G1 X115.682 Y104.38 E.07856
G1 X115.145 Y104.38 E.01694
G1 X113.385 Y102.62 E.07856
G1 X112.848 Y102.62 E.01694
G1 X114.608 Y104.38 E.07856
G1 X114.071 Y104.38 E.01694
G1 X112.57 Y102.879 E.06702
G1 X112.57 Y103.415 E.01694
G1 X113.535 Y104.38 E.04306
G1 X112.998 Y104.38 E.01694
G1 X112.4 Y103.782 E.02668
M204 S1000
; stop printing object clip-small.stl id:0 copy 0
;LAYER_CHANGE
;Z:0.35
;HEIGHT:0.15
;BEFORE_LAYER_CHANGE
G92 E0.0
;0.35


;WIPE_START
G1 F8640
G1 X112.998 Y104.38 E-.19517
G1 X113.535 Y104.38 E-.12394
G1 X112.57 Y103.415 E-.31504
G1 X112.57 Y102.879 E-.12394
G1 X113.158 Y103.466 E-.1919
;WIPE_END
M73 Q8 S5
G1 E-.05 F2100
G1 Z.4 F720
;AFTER_LAYER_CHANGE
;0.35
M104 S240 ; set temperature
M140 S90 ; set bed temperature
G1 X108.746 Y103.466 F10800
G1 Z.35 F720
G1 E1 F2100
;TYPE:Skirt/Brim
;WIDTH:0.42
G1 F1818
G1 X108.746 Y101.55 E.04635
G1 X109.139 Y100.133 E.03557
M73 P8 R5
G1 X110.205 Y99.119 E.03557
G1 X111.5 Y98.796 E.03229
G1 X138.5 Y98.796 E.65299
G1 X139.917 Y99.189 E.03557
G1 X140.931 Y100.255 E.03557
G1 X141.254 Y101.55 E.03229
G1 X141.254 Y103.55 E.04837
G1 X140.428 Y105.517 E.0516
G1 X135.428 Y110.417 E.16931
G1 X134.14 Y111.129 E.03557
G1 X133.128 Y111.179 E.02452
G1 X111.128 Y108.179 E.53699
G1 X109.777 Y107.598 E.03557
G1 X108.917 Y106.405 E.03557
G1 X108.746 Y105.45 E.02346
G1 X108.746 Y103.526 E.04652
G1 X109.123 Y103.526 F10800
G1 F1818
G1 X109.123 Y101.55 E.0478
G1 X109.515 Y100.243 E.033
G1 X110.56 Y99.367 E.033
G1 X111.5 Y99.173 E.02321
G1 X138.5 Y99.173 E.65299
G1 X139.807 Y99.565 E.033
M73 Q9 S5
G1 X140.683 Y100.61 E.033
G1 X140.877 Y101.55 E.02321
M73 P9 R5
G1 X140.877 Y103.55 E.04837
G1 X140.164 Y105.248 E.04454
G1 X135.164 Y110.148 E.16931
G1 X133.956 Y110.783 E.033
G1 X133.179 Y110.805 E.01881
G1 X111.179 Y107.805 E.53699
G1 X109.937 Y107.241 E.033
G1 X109.123 Y105.45 E.04757
G1 X109.123 Y103.586 E.04507
; printing object clip-small.stl id:0 copy 0
;WIPE_START
G1 F8640
G1 X109.123 Y101.55 E-.47019
G1 X109.515 Y100.243 E-.31505
G1 X110.061 Y99.785 E-.16476
;WIPE_END
G1 E-.05 F2100
G1 Z.55 F720
G1 X112.143 Y104.807 F10800
G1 Z.35 F720
G1 E1 F2100
M204 S800
;TYPE:Perimeter
;WIDTH:0.449999
G1 F1818
G1 X112.143 Y102.193 E.06812
G1 X137.857 Y102.193 E.67001
G1 X137.857 Y103.28 E.02833
G1 X134.143 Y106.92 E.13551
G1 X134.143 Y105.434 E.03872
G1 X134.075 Y105.149 E.00762
G1 X133.943 Y104.975 E.00571
G1 X133.753 Y104.854 E.00586
G1 X133.516 Y104.807 E.00629
G1 X112.203 Y104.807 E.55533
M204 S1000
G1 X111.725 Y105.225 F10800
M204 S800
;TYPE:External perimeter
M73 P10 R5
M73 Q10 S5
G1 F1500
G1 X111.725 Y101.775 E.08989
G1 X138.275 Y101.775 E.69178
G1 X138.275 Y103.455 E.04379
G1 X133.725 Y107.914 E.16599
G1 X133.725 Y105.434 E.06463
G1 X133.658 Y105.281 E.00435
G1 X133.516 Y105.225 E.00398
G1 X111.785 Y105.225 E.56622
M204 S1000
G1 X111.925 Y104.879 F10800
;WIPE_START
G1 F8640
G1 X111.725 Y101.775 E-.79674
G1 X112.389 Y101.775 E-.15326
;WIPE_END
G1 E-.05 F2100
G1 Z.55 F720
G1 X134.268 Y106.42 F10800
G1 Z.35 F720
G1 E1 F2100
;TYPE:Solid infill
;WIDTH:0.457165
G1 F1818
G1 X137.544 Y103.144 E.12277
G1 X137.544 Y102.543 E.01593
G1 X134.456 Y105.631 E.11573
G1 X134.456 Y105.422 E.00555
M73 Q11 S5
G1 X134.38 Y105.106 E.00861
G1 X136.98 Y102.506 E.09744
G1 X136.379 Y102.506 E.01593
G1 X134.147 Y104.738 E.08364
G1 X133.872 Y104.562 E.00868
M73 P11 R5
G1 X133.747 Y104.537 E.00336
G1 X135.778 Y102.506 E.07612
G1 X135.177 Y102.506 E.01593
G1 X133.189 Y104.494 E.0745
G1 X132.588 Y104.494 E.01593
G1 X134.576 Y102.506 E.0745
G1 X133.975 Y102.506 E.01593
G1 X131.987 Y104.494 E.0745
G1 X131.386 Y104.494 E.01593
G1 X133.374 Y102.506 E.0745
G1 X132.773 Y102.506 E.01593
G1 X130.785 Y104.494 E.0745
G1 X130.184 Y104.494 E.01593
G1 X132.172 Y102.506 E.0745
G1 X131.571 Y102.506 E.01593
G1 X129.583 Y104.494 E.0745
G1 X128.982 Y104.494 E.01593
G1 X130.97 Y102.506 E.0745
G1 X130.369 Y102.506 E.01593
G1 X128.381 Y104.494 E.0745
G1 X127.78 Y104.494 E.01593
G1 X129.768 Y102.506 E.0745
G1 X129.167 Y102.506 E.01593
G1 X127.179 Y104.494 E.0745
G1 X126.578 Y104.494 E.01593
G1 X128.566 Y102.506 E.0745
G1 X127.965 Y102.506 E.01593
G1 X125.977 Y104.494 E.0745
G1 X125.376 Y104.494 E.01593
G1 X127.364 Y102.506 E.0745
G1 X126.763 Y102.506 E.01593
G1 X124.775 Y104.494 E.0745
G1 X124.174 Y104.494 E.01593
G1 X126.162 Y102.506 E.0745
G1 X125.561 Y102.506 E.01593
G1 X123.573 Y104.494 E.0745
G1 X122.972 Y104.494 E.01593
G1 X124.96 Y102.506 E.0745
G1 X124.359 Y102.506 E.01593
G1 X122.371 Y104.494 E.0745
G1 X121.77 Y104.494 E.01593
G1 X123.758 Y102.506 E.0745
G1 X123.157 Y102.506 E.01593
G1 X121.169 Y104.494 E.0745
G1 X120.568 Y104.494 E.01593
G1 X122.556 Y102.506 E.0745
G1 X121.955 Y102.506 E.01593
G1 X119.967 Y104.494 E.0745
G1 X119.366 Y104.494 E.01593
G1 X121.354 Y102.506 E.0745
M73 Q12 S5
G1 X120.753 Y102.506 E.01593
G1 X118.765 Y104.494 E.0745
G1 X118.164 Y104.494 E.01593
G1 X120.152 Y102.506 E.0745
G1 X119.551 Y102.506 E.01593
M73 P12 R5
G1 X117.563 Y104.494 E.0745
G1 X116.962 Y104.494 E.01593
G1 X118.95 Y102.506 E.0745
G1 X118.349 Y102.506 E.01593
G1 X116.361 Y104.494 E.0745
G1 X115.76 Y104.494 E.01593
G1 X117.748 Y102.506 E.0745
G1 X117.147 Y102.506 E.01593
G1 X115.159 Y104.494 E.0745
G1 X114.558 Y104.494 E.01593
G1 X116.546 Y102.506 E.0745
G1 X115.945 Y102.506 E.01593
G1 X113.957 Y104.494 E.0745
G1 X113.356 Y104.494 E.01593
G1 X115.344 Y102.506 E.0745
G1 X114.743 Y102.506 E.01593
G1 X112.755 Y104.494 E.0745
G1 X112.456 Y104.494 E.00792
G1 X112.456 Y104.192 E.008
G1 X114.142 Y102.506 E.06318
G1 X113.541 Y102.506 E.01593
G1 X112.456 Y103.591 E.04065
G1 X112.456 Y102.99 E.01593
G1 X113.128 Y102.318 E.02517
; stop printing object clip-small.stl id:0 copy 0
;LAYER_CHANGE
;Z:0.5
;HEIGHT:0.15
;BEFORE_LAYER_CHANGE
G92 E0.0
;0.5


;WIPE_START
G1 F8640
G1 X112.456 Y102.99 E-.21933
G1 X112.456 Y103.591 E-.13877
G1 X113.541 Y102.506 E-.35419
G1 X114.142 Y102.506 E-.13877
G1 X113.839 Y102.809 E-.09893
;WIPE_END
G1 E-.05 F2100
G1 Z.55 F720
;AFTER_LAYER_CHANGE
;0.5
G1 X113.839 Y98.796 F10800
G1 Z.5 F720
G1 E1 F2100
;TYPE:Skirt/Brim
;WIDTH:0.42
G1 F1833
G1 X138.5 Y98.796 E.59643
G1 X139.917 Y99.189 E.03557
G1 X140.931 Y100.255 E.03557
G1 X141.254 Y101.55 E.03229
G1 X141.254 Y103.55 E.04837
G1 X140.428 Y105.517 E.0516
G1 X135.428 Y110.417 E.16931
G1 X134.14 Y111.129 E.03557
G1 X133.128 Y111.179 E.02452
G1 X111.128 Y108.179 E.53699
G1 X109.777 Y107.598 E.03557
M73 P13 R5
M73 Q13 S5
G1 X108.917 Y106.405 E.03557
G1 X108.746 Y105.45 E.02346
G1 X108.746 Y101.55 E.09432
G1 X109.139 Y100.133 E.03557
G1 X110.205 Y99.119 E.03557
G1 X111.5 Y98.796 E.03229
G1 X113.779 Y98.796 E.05511
G1 X113.779 Y99.173 F10800
G1 F1833
G1 X138.5 Y99.173 E.59788
G1 X139.807 Y99.565 E.033
G1 X140.683 Y100.61 E.033
G1 X140.877 Y101.55 E.02321
G1 X140.877 Y103.55 E.04837
G1 X140.164 Y105.248 E.04454
G1 X135.164 Y110.148 E.16931
G1 X133.956 Y110.783 E.033
G1 X133.179 Y110.805 E.01881
G1 X111.179 Y107.805 E.53699
G1 X109.937 Y107.241 E.033
G1 X109.123 Y105.45 E.04757
G1 X109.123 Y101.55 E.09432
G1 X109.515 Y100.243 E.033
G1 X110.56 Y99.367 E.033
G1 X111.5 Y99.173 E.02321
G1 X113.719 Y99.173 E.05366
; printing object clip-small.stl id:0 copy 0
;WIPE_START
G1 F8640
G1 X117.833 Y99.173 E-.95
;WIPE_END
G1 E-.05 F2100
M73 Q14 S5
G1 Z.7 F720
G1 X133.594 Y104.823 F10800
G1 Z.5 F720
M73 P14 R5
G1 E1 F2100
M204 S800
;TYPE:Perimeter
;WIDTH:0.449999
G1 F1833
G1 X133.516 Y104.807 E.00207
G1 X112.143 Y104.807 E.5569
G1 X112.143 Y102.193 E.06812
G1 X137.857 Y102.193 E.67001
G1 X137.857 Y103.28 E.02833
G1 X134.143 Y106.92 E.13551
G1 X134.143 Y105.434 E.03872
G1 X134.075 Y105.149 E.00762
G1 X133.943 Y104.975 E.00571
G1 X133.753 Y104.854 E.00586
G1 X133.653 Y104.834 E.00266
M204 S1000
G1 X133.516 Y105.225 F10800
M204 S800
;TYPE:External perimeter
G1 F1500
G1 X111.725 Y105.225 E.56778
G1 X111.725 Y101.775 E.08989
G1 X138.275 Y101.775 E.69178
G1 X138.275 Y103.455 E.04379
M73 P15 R5
M73 Q15 S5
G1 X133.725 Y107.914 E.16599
G1 X133.725 Y105.434 E.06463
G1 X133.658 Y105.281 E.00435
G1 X133.572 Y105.247 E.00242
M204 S1000
G1 X133.413 Y104.839 F10800
;WIPE_START
G1 F8640
G1 X129.458 Y105.243 E-.95
;WIPE_END
G1 E-.05 F2100
G1 Z.7 F720
G1 X137.732 Y103.167 F10800
G1 Z.5 F720
G1 E1 F2100
;TYPE:Solid infill
;WIDTH:0.452105
G1 F1833
G1 X137.071 Y102.506 E.02448
G1 X136.477 Y102.506 E.01555
G1 X137.329 Y103.359 E.03157
G1 X137.029 Y103.652 E.011
G1 X135.883 Y102.506 E.04245
G1 X135.289 Y102.506 E.01555
G1 X136.729 Y103.946 E.05334
G1 X136.43 Y104.24 E.011
G1 X134.695 Y102.506 E.06422
G1 X134.102 Y102.506 E.01555
G1 X136.13 Y104.534 E.07511
G1 X135.83 Y104.828 E.011
G1 X133.508 Y102.506 E.08599
G1 X132.914 Y102.506 E.01555
G1 X135.53 Y105.122 E.09688
G1 X135.23 Y105.416 E.011
G1 X132.32 Y102.506 E.10776
G1 X131.726 Y102.506 E.01555
G1 X134.93 Y105.71 E.11865
G1 X134.63 Y106.004 E.011
G1 X134.268 Y105.642 E.0134
;WIPE_START
G1 F8640
G1 X134.63 Y106.004 E-.11816
G1 X134.93 Y105.71 E-.09696
G1 X132.679 Y103.459 E-.73488
;WIPE_END
G1 E-.05 F2100
G1 Z.7 F720
G1 X133.308 Y104.682 F10800
G1 Z.5 F720
G1 E1 F2100
G1 F1833
G1 X131.132 Y102.506 E.08057
G1 X130.538 Y102.506 E.01555
