; generated by PrusaSlicer 2.5.0+win64 on 2022-10-05 at 20:11:36 UTC


;
;
; 

; external perimeters extrusion width = 0.45mm
; perimeters extrusion width = 0.45mm
; infill extrusion width = 0.45mm
; solid infill extrusion width = 0.45mm
; top infill extrusion width = 0.40mm
; first layer extrusion width = 0.42mm

; external perimeters extrusion width = 0.45mm
; perimeters extrusion width = 0.45mm
; infill extrusion width = 0.45mm
; solid infill extrusion width = 0.45mm
; top infill extrusion width = 0.40mm
; first layer extrusion width = 0.42mm

M73 P0 R74
M73 Q0 S75
M201 X1000 Y1000 Z200 E5000 ; sets maximum accelerations, mm/sec^2
M203 X200 Y200 Z12 E120 ; sets maximum feedrates, mm / sec
M204 P1250 R1250 T1250 ; sets acceleration (P, T) and retract acceleration (R), mm/sec^2
M205 X8.00 Y8.00 Z0.40 E4.50 ; sets the jerk limits, mm/sec
M205 S0 T0 ; sets the minimum extruding and travel feed rate, mm/sec
M107
;TYPE:Custom
M862.3 P "MK3S" ; printer model check
M862.1 P0.4 ; nozzle diameter check
M115 U3.11.0 ; tell printer latest fw version
G90 ; use absolute coordinates
M83 ; extruder relative mode
M104 S230 ; set extruder temp
M140 S85 ; set bed temp
M190 S85 ; wait for bed temp
M109 S230 ; wait for extruder temp
G28 W ; home all without mesh bed level
G80 ; mesh bed leveling

G1 Z0.2 F720
G1 Y-3 F1000 ; go outside print area
G92 E0
G1 X60 E9 F1000 ; intro line
G1 X100 E12.5 F1000 ; intro line

G92 E0
M221 S95

; Don't change E values below. Excessive value can damage the printer.
M907 E430 ; set extruder motor current
G21 ; set units to millimeters
G90 ; use absolute coordinates
M83 ; use relative distances for extrusion
M900 K0.08 ; Filament gcode LA 1.5
M900 K45 ; Filament gcode LA 1.0
M107
;LAYER_CHANGE
;Z:0.2
;HEIGHT:0.2
;BEFORE_LAYER_CHANGE
G92 E0.0
;0.2


G1 E-1 F2100
G1 Z.2 F720
;AFTER_LAYER_CHANGE
;0.2
G1 Z.4
G1 X79.515 Y60.11 F10800
G1 Z.2 F720
G1 E1 F2100
M204 S800
;TYPE:Skirt/Brim
;WIDTH:0.42
G1 F1200
G1 X80.56 Y59.233 E.04278
G1 X81.5 Y59.039 E.03008
G1 X137.506 Y59.039 E1.75602
G1 X168.506 Y59.116 E.97199
G1 X169.812 Y59.511 E.04278
G1 X170.686 Y60.559 E.04278
G1 X170.877 Y61.493 E.0299
G1 X170.865 Y63.73 E.07015
G1 X164.365 Y128.487 E2.04061
G1 X162.294 Y136.235 E.25146
M73 Q0 S74
G1 X161.01 Y137.764 E.06261
G1 X133.51 Y150.664 E.9524
G1 X132.147 Y150.863 E.04316
G1 X112.147 Y147.863 E.6341
G1 X111.543 Y147.688 E.01974
G1 X89.043 Y137.788 E.77074
G1 X88.004 Y136.903 E.04278
G1 X87.706 Y136.235 E.02293
G1 X85.635 Y128.494 E.25124
G1 X79.135 Y65.561 E1.98373
G1 X79.123 Y61.417 E.12994
G1 X79.497 Y60.167 E.0409
M204 S1000
; printing object clip-embleme-large.stl id:1 copy 1
;WIPE_START
G1 F8640
G1 X80.56 Y59.233 E-.32671
G1 X81.5 Y59.039 E-.22155
G1 X83.24 Y59.039 E-.40174
;WIPE_END
G1 E-.05 F2100
G1 Z.4 F720
G1 X111.471 Y127.199 F10800
G1 Z.2 F720
G1 E1 F2100
M204 S800
;TYPE:Perimeter
;WIDTH:0.419999
G1 F1200
G1 X111.453 Y127.279 E.00256
G1 X111.457 Y130.708 E.10752
G1 X111.649 Y131.746 E.03308
G1 X112.059 Y132.612 E.03004
G1 X112.648 Y133.332 E.02918
G1 X113.118 Y133.712 E.01893
G1 X113.967 Y134.154 E.03004
;WIDTH:0.45708
G1 X114.9 Y134.392 E.03314
;WIDTH:0.460878
G1 X115.834 Y134.382 E.03247
G1 X116.419 Y134.232 E.021
;WIDTH:0.419999
G1 X117.295 Y133.843 E.03004
G1 X118.048 Y133.251 E.03003
G1 X118.625 Y132.504 E.02959
G1 X118.948 Y131.808 E.02406
G1 X119.11 Y131.173 E.02055
G1 X119.161 Y130.622 E.01735
G1 X119.378 Y129.037 E.05017
G1 X120.971 Y129.037 E.04992
G1 X119.398 Y134.825 E.18805
G1 X116.368 Y134.825 E.09502
;WIDTH:0.457114
G1 X115.718 Y134.806 E.02239
;WIDTH:0.469496
G1 X114.701 Y134.8 E.03606
G1 X113.883 Y134.825 E.02903
;WIDTH:0.419999
G1 X96.117 Y134.825 E.55705
;WIDTH:0.457103
G1 X95.101 Y134.806 E.03501
;WIDTH:0.469497
G1 X94.084 Y134.8 E.03605
G1 X93.266 Y134.825 E.02904
;WIDTH:0.419999
G1 X90.602 Y134.825 E.08353
G1 X89.029 Y129.037 E.18805
G1 X90.622 Y129.037 E.04992
G1 X90.972 Y131.549 E.07952
G1 X91.245 Y132.266 E.02406
G1 X91.664 Y132.925 E.02449
G1 X92.322 Y133.583 E.02917
G1 X92.801 Y133.902 E.01806
G1 X93.35 Y134.154 E.01894
;WIDTH:0.457078
G1 X94.283 Y134.392 E.03315
G1 X95.245 Y134.374 E.03313
;WIDTH:0.45654
G1 X96.164 Y134.103 E.03296
;WIDTH:0.419999
G1 X96.976 Y133.648 E.02918
G1 X97.413 Y133.273 E.01805
G1 X97.804 Y132.813 E.01894
G1 X98.268 Y131.974 E.03004
G1 X98.489 Y131.187 E.02565
G1 X98.543 Y130.708 E.01511
G1 X98.543 Y127.213 E.10958
G1 X98.444 Y126.953 E.00873
G1 X98.243 Y126.777 E.00836
G1 X97.981 Y126.713 E.00846
G1 X90.787 Y126.713 E.22557
G1 X90.787 Y124.279 E.07633
G1 X90.769 Y124.138 E.00444
G1 X90.692 Y123.965 E.00593
G1 X90.535 Y123.808 E.00699
G1 X90.221 Y123.713 E.01026
G1 X88.787 Y123.713 E.04497
G1 X88.787 Y108.787 E.46799
G1 X121.213 Y108.787 E1.01669
G1 X121.213 Y117.75 E.28103
G1 X121.213 Y123.713 E.18696
G1 X119.779 Y123.713 E.04497
G1 X119.583 Y123.748 E.00621
G1 X119.393 Y123.865 E.00701
G1 X119.267 Y124.037 E.0067
G1 X119.213 Y124.279 E.00775
G1 X119.213 Y126.713 E.07633
G1 X111.927 Y126.72 E.22846
G1 X111.684 Y126.822 E.00825
G1 X111.506 Y127.039 E.00877
G1 X111.484 Y127.141 E.00329
M204 S1000
G1 X111.83 Y127.279 F10800
M204 S800
;TYPE:External perimeter
G1 F1200
G1 X111.834 Y130.708 E.10752
G1 X111.993 Y131.591 E.02812
G1 X112.354 Y132.377 E.02711
G1 X112.89 Y133.043 E.02683
G1 X113.298 Y133.38 E.01658
G1 X114.06 Y133.789 E.02712
G1 X114.9 Y133.997 E.02711
G1 X115.755 Y133.993 E.02683
G1 X116.273 Y133.884 E.01658
G1 X117.068 Y133.543 E.02712
G1 X117.753 Y133.016 E.02711
G1 X118.286 Y132.341 E.02696
G1 X118.582 Y131.718 E.02162
G1 X118.744 Y131.08 E.02064
G1 X118.785 Y130.582 E.01567
G1 X119.05 Y128.66 E.06083
G1 X121.464 Y128.66 E.0757
G1 X119.687 Y135.202 E.21255
G1 X90.313 Y135.202 E.92097
G1 X88.536 Y128.66 E.21255
G1 X90.95 Y128.66 E.0757
G1 X91.326 Y131.42 E.08733
G1 X91.566 Y132.069 E.02171
G1 X91.934 Y132.662 E.02186
G1 X92.534 Y133.272 E.02683
G1 X92.965 Y133.563 E.0163
G1 X93.443 Y133.789 E.01659
G1 X94.283 Y133.997 E.02712
G1 X95.147 Y133.991 E.0271
G1 X95.984 Y133.772 E.02711
G1 X96.733 Y133.359 E.02683
G1 X97.13 Y133.023 E.01629
G1 X97.477 Y132.624 E.01659
G1 X97.905 Y131.872 E.02712
G1 X98.126 Y131.085 E.02565
G1 X98.166 Y130.708 E.01189
G1 X98.17 Y127.279 E.10751
G1 X98.127 Y127.159 E.00399
G1 X97.981 Y127.09 E.00505
G1 X90.41 Y127.09 E.2374
G1 X90.41 Y124.279 E.08815
G1 X90.365 Y124.157 E.00406
G1 X90.221 Y124.09 E.00498
G1 X88.41 Y124.09 E.0568
G1 X88.41 Y108.41 E.49163
G1 X121.59 Y108.41 E1.04033
G1 X121.59 Y124.09 E.49163
G1 X119.779 Y124.09 E.0568
G1 X119.65 Y124.141 E.00433
G1 X119.59 Y124.279 E.00472
G1 X119.59 Y127.09 E.08815
G1 X112.019 Y127.09 E.2374
G1 X111.896 Y127.135 E.00409
G1 X111.855 Y127.224 E.00308
M204 S1000
G1 X111.444 Y127.383 F10800
;WIPE_START
G1 F8640
G1 X111.834 Y130.708 E-.80442
G1 X111.946 Y131.329 E-.14558
;WIPE_END
G1 E-.05 F2100
G1 Z.4 F720
G1 X120.022 Y129.15 F10800
G1 Z.2 F720
G1 E1 F2100
M204 S800
;TYPE:Solid infill
;WIDTH:0.44093
G1 F1200
G1 X120.513 Y129.642 E.023
G1 X120.393 Y130.084 E.01518
G1 X119.625 Y129.32 E.03586
G1 X119.557 Y129.812 E.01643
G1 X120.273 Y130.527 E.03348
G1 X120.153 Y130.97 E.01518
G1 X119.489 Y130.306 E.03104
G1 X119.427 Y130.807 E.01669
G1 X120.032 Y131.412 E.02833
G1 X119.912 Y131.855 E.01518
G1 X119.366 Y131.309 E.02556
G1 X119.245 Y131.751 E.01517
G1 X119.792 Y132.297 E.02557
G1 X119.672 Y132.74 E.01518
G1 X119.101 Y132.169 E.02672
G1 X118.918 Y132.549 E.01396
G1 X119.551 Y133.183 E.02965
G1 X119.431 Y133.625 E.01518
G1 X118.697 Y132.891 E.03437
G1 X118.446 Y133.203 E.01325
G1 X119.311 Y134.068 E.04046
G1 X119.191 Y134.511 E.01518
G1 X118.188 Y133.508 E.04693
G1 X117.871 Y133.754 E.01328
G1 X118.659 Y134.542 E.03688
G1 X118.096 Y134.542 E.01863
G1 X117.554 Y134 E.02536
G1 X117.462 Y134.072 E.00388
G1 X117.201 Y134.209 E.00976
G1 X117.533 Y134.542 E.01558
G1 X116.971 Y134.542 E.01863
G1 X116.675 Y134.247 E.01383
M204 S1000
;WIPE_START
G1 F8640
G1 X116.971 Y134.542 E-.09648
G1 X117.533 Y134.542 E-.12997
G1 X117.201 Y134.209 E-.10869
G1 X117.462 Y134.072 E-.06813
G1 X117.554 Y134 E-.02707
G1 X118.096 Y134.542 E-.17696
G1 X118.659 Y134.542 E-.12997
G1 X118.008 Y133.891 E-.21274
;WIPE_END
G1 E-.05 F2100
G1 Z.4 F720
G1 X120.336 Y108.9 F10800
G1 Z.2 F720
G1 E1 F2100
M204 S800
;WIDTH:0.420504
G1 F1200
G1 X120.93 Y109.494 E.02636
G1 X120.93 Y110.028 E.01677
G1 X119.972 Y109.07 E.04253
G1 X119.438 Y109.07 E.01677
G1 X120.93 Y110.562 E.06624
G1 X120.93 Y111.096 E.01677
G1 X118.904 Y109.07 E.08995
G1 X118.37 Y109.07 E.01677
G1 X120.93 Y111.63 E.11366
G1 X120.93 Y112.164 E.01677
G1 X117.836 Y109.07 E.13737
G1 X117.302 Y109.07 E.01677
G1 X120.93 Y112.698 E.16108
G1 X120.93 Y113.232 E.01677
M73 P1 R74
M73 Q1 S74
G1 X116.768 Y109.07 E.18479
G1 X116.234 Y109.07 E.01677
G1 X120.93 Y113.766 E.2085
G1 X120.93 Y114.3 E.01677
G1 X115.7 Y109.07 E.23221
G1 X115.166 Y109.07 E.01677
G1 X120.93 Y114.834 E.25592
G1 X120.93 Y115.368 E.01677
G1 X114.632 Y109.07 E.27963
G1 X114.098 Y109.07 E.01677
G1 X120.93 Y115.902 E.30334
G1 X120.93 Y116.436 E.01677
G1 X113.564 Y109.07 E.32705
G1 X113.03 Y109.07 E.01677
G1 X120.93 Y116.97 E.35076
G1 X120.93 Y117.504 E.01677
G1 X112.496 Y109.07 E.37447
G1 X111.962 Y109.07 E.01677
G1 X120.93 Y118.038 E.39818
G1 X120.93 Y118.572 E.01677
G1 X111.428 Y109.07 E.42189
G1 X110.894 Y109.07 E.01677
M73 P1 R73
G1 X120.93 Y119.106 E.44559
G1 X120.93 Y119.64 E.01677
G1 X110.36 Y109.07 E.4693
G1 X109.826 Y109.07 E.01677
G1 X120.93 Y120.174 E.49301
G1 X120.93 Y120.708 E.01677
G1 X109.292 Y109.07 E.51672
G1 X108.759 Y109.07 E.01677
G1 X120.93 Y121.241 E.54043
G1 X120.93 Y121.775 E.01677
G1 X108.225 Y109.07 E.56414
G1 X107.691 Y109.07 E.01677
G1 X120.93 Y122.309 E.58785
G1 X120.93 Y122.843 E.01677
G1 X107.157 Y109.07 E.61156
G1 X106.623 Y109.07 E.01677
G1 X120.93 Y123.377 E.63527
G1 X120.93 Y123.43 E.00165
G1 X120.449 Y123.43 E.01511
G1 X106.089 Y109.07 E.63761
G1 X105.555 Y109.07 E.01677
G1 X119.915 Y123.43 E.63761
G1 X119.77 Y123.43 E.00454
G1 X119.45 Y123.5 E.01028
G1 X105.021 Y109.07 E.64069
G1 X104.487 Y109.07 E.01677
G1 X119.142 Y123.725 E.65072
G1 X119.07 Y123.81 E.0035
G1 X118.955 Y124.073 E.00899
G1 X103.953 Y109.07 E.66614
G1 X103.419 Y109.07 E.01677
G1 X118.93 Y124.581 E.68872
G1 X118.93 Y125.115 E.01677
G1 X102.885 Y109.07 E.71243
G1 X102.351 Y109.07 E.01677
G1 X118.93 Y125.649 E.73614
G1 X118.93 Y126.183 E.01677
G1 X101.817 Y109.07 E.75985
G1 X101.283 Y109.07 E.01677
G1 X118.643 Y126.43 E.77082
G1 X118.109 Y126.43 E.01676
G1 X100.749 Y109.07 E.77083
G1 X100.215 Y109.07 E.01677
G1 X117.576 Y126.431 E.77084
G1 X117.042 Y126.431 E.01676
G1 X99.681 Y109.07 E.77084
G1 X99.147 Y109.07 E.01677
M73 Q1 S73
G1 X116.508 Y126.431 E.77085
G1 X115.974 Y126.431 E.01676
G1 X98.613 Y109.07 E.77086
G1 X98.079 Y109.07 E.01677
G1 X115.44 Y126.431 E.77087
G1 X114.907 Y126.432 E.01676
G1 X97.545 Y109.07 E.77088
G1 X97.011 Y109.07 E.01677
G1 X114.373 Y126.432 E.77089
G1 X113.839 Y126.432 E.01676
G1 X96.477 Y109.07 E.7709
G1 X95.943 Y109.07 E.01677
G1 X113.305 Y126.432 E.7709
G1 X112.771 Y126.432 E.01676
G1 X95.409 Y109.07 E.77091
G1 X94.875 Y109.07 E.01677
G1 X112.238 Y126.433 E.77092
G1 X111.947 Y126.433 E.00911
G1 X111.746 Y126.475 E.00646
G1 X94.341 Y109.07 E.77279
G1 X93.807 Y109.07 E.01677
G1 X111.419 Y126.682 E.78198
G1 X111.285 Y126.851 E.00677
G1 X111.219 Y127.016 E.00559
G1 X93.273 Y109.07 E.79682
G1 X92.739 Y109.07 E.01677
G1 X111.17 Y127.501 E.81838
G1 X111.171 Y128.036 E.01678
M73 P2 R73
M73 Q2 S73
G1 X92.205 Y109.07 E.84211
G1 X91.671 Y109.07 E.01677
G1 X111.172 Y128.571 E.86585
G1 X111.172 Y129.105 E.01678
G1 X91.137 Y109.07 E.88959
G1 X90.603 Y109.07 E.01677
G1 X111.173 Y129.64 E.91332
G1 X111.174 Y130.174 E.01678
G1 X90.069 Y109.07 E.93706
G1 X89.535 Y109.07 E.01677
G1 X111.174 Y130.709 E.9608
G1 X111.278 Y131.346 E.02027
G1 X89.07 Y109.139 E.98605
G1 X89.07 Y109.673 E.01677
G1 X111.5 Y132.103 E.99591
G1 X111.73 Y132.613 E.01759
G1 X111.834 Y132.783 E.00626
G1 X112.351 Y133.432 E.02603
G1 X112.463 Y133.547 E.00504
G1 X112.975 Y133.956 E.02057
G1 X113.775 Y134.377 E.02838
G1 X113.936 Y134.539 E.00717
G1 X113.405 Y134.542 E.01666
G1 X89.07 Y110.207 E1.08052
G1 X89.07 Y110.741 E.01677
G1 X112.871 Y134.542 E1.05681
G1 X112.337 Y134.542 E.01677
G1 X89.07 Y111.275 E1.0331
G1 X89.07 Y111.809 E.01677
G1 X111.803 Y134.542 E1.00939
G1 X111.269 Y134.542 E.01677
G1 X89.07 Y112.343 E.98568
G1 X89.07 Y112.877 E.01677
M73 P2 R72
G1 X110.735 Y134.542 E.96197
G1 X110.201 Y134.542 E.01677
G1 X89.07 Y113.411 E.93826
G1 X89.07 Y113.945 E.01677
G1 X109.667 Y134.542 E.91455
G1 X109.133 Y134.542 E.01677
G1 X89.07 Y114.478 E.89084
G1 X89.07 Y115.012 E.01677
G1 X108.599 Y134.542 E.86713
G1 X108.065 Y134.542 E.01677
G1 X89.07 Y115.546 E.84342
G1 X89.07 Y116.08 E.01677
G1 X107.532 Y134.542 E.81971
G1 X106.998 Y134.542 E.01677
G1 X89.07 Y116.614 E.79601
G1 X89.07 Y117.148 E.01677
G1 X106.464 Y134.542 E.7723
G1 X105.93 Y134.542 E.01677
G1 X98.829 Y127.442 E.31525
G1 X98.808 Y127.084 E.01127
G1 X98.714 Y126.848 E.00796
G1 X98.533 Y126.632 E.00884
G1 X98.315 Y126.497 E.00807
G1 X98.055 Y126.433 E.00841
G1 X97.82 Y126.433 E.00736
G1 X89.07 Y117.682 E.38852
G1 X89.07 Y118.216 E.01677
G1 X97.286 Y126.432 E.3648
G1 X96.752 Y126.432 E.01677
G1 X89.07 Y118.75 E.34108
G1 X89.07 Y119.284 E.01677
G1 X96.218 Y126.432 E.31736
G1 X95.683 Y126.432 E.01677
G1 X89.07 Y119.818 E.29364
G1 X89.07 Y120.352 E.01677
G1 X95.149 Y126.432 E.26993
G1 X94.615 Y126.431 E.01677
G1 X89.07 Y120.886 E.24621
G1 X89.07 Y121.42 E.01677
G1 X94.081 Y126.431 E.22249
G1 X93.547 Y126.431 E.01677
G1 X89.07 Y121.954 E.19877
G1 X89.07 Y122.488 E.01677
G1 X90.012 Y123.43 E.04182
G1 X89.478 Y123.43 E.01677
G1 X88.9 Y122.853 E.02564
M204 S1000
;WIPE_START
G1 F8640
G1 X89.478 Y123.43 E-.18861
G1 X90.012 Y123.43 E-.1233
G1 X89.07 Y122.488 E-.30757
G1 X89.07 Y121.954 E-.1233
G1 X89.704 Y122.589 E-.20723
;WIPE_END
G1 E-.05 F2100
G1 Z.4 F720
G1 X90.9 Y124.319 F10800
G1 Z.2 F720
G1 E1 F2100
M204 S800
G1 F1200
G1 X93.012 Y126.431 E.09379
G1 X92.478 Y126.431 E.01677
G1 X91.07 Y125.022 E.06254
G1 X91.07 Y125.556 E.01677
G1 X91.944 Y126.43 E.03882
G1 X91.41 Y126.43 E.01677
G1 X90.9 Y125.921 E.02263
M204 S1000
;WIPE_START
G1 F8640
G1 X91.41 Y126.43 E-.16646
G1 X91.944 Y126.43 E-.12334
G1 X91.07 Y125.556 E-.28548
G1 X91.07 Y125.022 E-.1233
G1 X91.84 Y125.792 E-.25141
;WIPE_END
G1 E-.05 F2100
G1 Z.4 F720
G1 X98.659 Y127.805 F10800
G1 Z.2 F720
G1 E1 F2100
M204 S800
G1 F1200
G1 X105.396 Y134.542 E.29911
G1 X104.862 Y134.542 E.01677
G1 X98.827 Y128.508 E.26794
G1 X98.826 Y129.04 E.01673
G1 X104.328 Y134.542 E.24428
G1 X103.794 Y134.542 E.01677
G1 X98.825 Y129.573 E.22062
G1 X98.824 Y130.106 E.01673
G1 X103.26 Y134.542 E.19697
G1 X102.726 Y134.542 E.01677
M73 Q2 S72
G1 X98.822 Y130.639 E.17331
G1 X98.822 Y130.789 E.0047
G1 X98.779 Y131.13 E.01079
G1 X102.192 Y134.542 E.15151
G1 X101.658 Y134.542 E.01677
G1 X98.678 Y131.562 E.13232
G1 X98.56 Y131.979 E.01359
G1 X101.124 Y134.542 E.11382
G1 X100.59 Y134.542 E.01677
G1 X98.398 Y132.35 E.09733
G1 X98.202 Y132.689 E.01227
G1 X100.056 Y134.542 E.0823
G1 X99.522 Y134.542 E.01677
G1 X98.001 Y133.021 E.06752
G1 X97.757 Y133.311 E.0119
G1 X98.988 Y134.542 E.05467
G1 X98.454 Y134.542 E.01677
G1 X97.49 Y133.578 E.04281
M73 P3 R72
G1 X97.203 Y133.825 E.01189
G1 X97.92 Y134.542 E.03182
G1 X97.386 Y134.542 E.01677
G1 X96.879 Y134.035 E.0225
G1 X96.533 Y134.224 E.01236
G1 X96.852 Y134.542 E.01414
M73 Q3 S72
G1 X96.318 Y134.542 E.01677
G1 X96.035 Y134.259 E.01256
M204 S1000
;WIPE_START
G1 F8640
G1 X96.318 Y134.542 E-.09235
G1 X96.852 Y134.542 E-.1233
G1 X96.533 Y134.224 E-.10398
G1 X96.879 Y134.035 E-.09089
G1 X97.386 Y134.542 E-.16546
G1 X97.92 Y134.542 E-.1233
G1 X97.203 Y133.825 E-.23405
G1 X97.258 Y133.778 E-.01666
;WIPE_END
G1 E-.05 F2100
G1 Z.4 F720
G1 X90.648 Y130.059 F10800
G1 Z.2 F720
G1 E1 F2100
M204 S800
;WIDTH:0.429346
G1 F1200
G1 X89.908 Y129.32 E.0336
G1 X89.399 Y129.32 E.01635
G1 X89.413 Y129.371 E.00172
G1 X90.536 Y130.494 E.051
G1 X90.622 Y131.127 E.02053
G1 X89.617 Y130.122 E.04567
G1 X89.821 Y130.872 E.02498
G1 X91.059 Y132.11 E.05624
M204 S1000
;WIPE_START
G1 F8640
