; generated by PrusaSlicer 2.5.0+win64 on 2022-10-02 at 20:04:10 UTC


;
;
; 

; external perimeters extrusion width = 0.45mm
; perimeters extrusion width = 0.45mm
; infill extrusion width = 0.45mm
; solid infill extrusion width = 0.45mm
; top infill extrusion width = 0.40mm
; support material extrusion width = 0.35mm
; first layer extrusion width = 0.42mm

M73 P0 R201
M73 Q0 S203
M201 X1000 Y1000 Z200 E5000 ; sets maximum accelerations, mm/sec^2
M203 X200 Y200 Z12 E120 ; sets maximum feedrates, mm / sec
M204 P1250 R1250 T1250 ; sets acceleration (P, T) and retract acceleration (R), mm/sec^2
M205 X8.00 Y8.00 Z0.40 E4.50 ; sets the jerk limits, mm/sec
M205 S0 T0 ; sets the minimum extruding and travel feed rate, mm/sec
M107
;TYPE:Custom
M862.3 P "MK3S" ; printer model check
M862.1 P0.4 ; nozzle diameter check
M115 U3.11.0 ; tell printer latest fw version
G90 ; use absolute coordinates
M83 ; extruder relative mode
M104 S230 ; set extruder temp
M140 S85 ; set bed temp
M190 S85 ; wait for bed temp
M109 S230 ; wait for extruder temp
G28 W ; home all without mesh bed level
G80 ; mesh bed leveling

G1 Z0.2 F720
G1 Y-3 F1000 ; go outside print area
G92 E0
G1 X60 E9 F1000 ; intro line
G1 X100 E12.5 F1000 ; intro line

G92 E0
M221 S95

; Don't change E values below. Excessive value can damage the printer.
M907 E430 ; set extruder motor current
G21 ; set units to millimeters
G90 ; use absolute coordinates
M83 ; use relative distances for extrusion
M900 K0.08 ; Filament gcode LA 1.5
M900 K45 ; Filament gcode LA 1.0
M107
;LAYER_CHANGE
;Z:0.2
;HEIGHT:0.2
;BEFORE_LAYER_CHANGE
G92 E0.0
;0.2


G1 E-1 F2100
G1 Z.2 F720
;AFTER_LAYER_CHANGE
;0.2
G1 Z.4
G1 X32.792 Y65.222 F10800
G1 Z.2 F720
G1 E1 F2100
M204 S800
;TYPE:Skirt/Brim
;WIDTH:0.42
G1 F1200
G1 X33.974 Y64.907 E.03836
G1 X216.026 Y64.907 E5.70809
G1 X217.208 Y65.222 E.03836
G1 X226.307 Y70.438 E.32885
G1 X227.246 Y71.427 E.04278
G1 X227.502 Y72.5 E.03457
G1 X227.502 Y134.5 E1.94397
G1 X226.718 Y136.264 E.06054
G1 X217.619 Y144.48 E.3844
G1 X216.026 Y145.093 E.05352
G1 X33.974 Y145.093 E5.70809
G1 X32.381 Y144.48 E.05352
M73 Q0 S202
G1 X23.282 Y136.264 E.3844
G1 X22.498 Y134.5 E.06054
G1 X22.498 Y72.5 E1.94397
G1 X22.89 Y71.193 E.04278
G1 X23.693 Y70.438 E.03457
G1 X32.74 Y65.252 E.32697
M204 S1000
; printing object rear-case.stl id:0 copy 0
;WIPE_START
G1 F8640
G1 X33.974 Y64.907 E-.29588
G1 X36.807 Y64.907 E-.65412
;WIPE_END
G1 E-.05 F2100
G1 Z.4 F720
G1 X46.825 Y72.02 F10800
G1 Z.2 F720
G1 E1 F2100
M204 S800
;TYPE:Support material
G1 F1200
G1 X33.974 Y72.02 E.40294
G1 X33.974 Y67.284 E.14849
G1 X46.825 Y67.284 E.40294
G1 X46.825 Y71.963 E.14672
M204 S1000
G1 X46.232 Y71.85 F10800
M204 S800
G1 F1200
G1 X46.232 Y67.623 E.13253
G1 X45.813 Y67.623 E.01314
G1 X45.813 Y71.681 E.12721
G1 X45.394 Y71.681 E.01314
G1 X45.394 Y67.623 E.12721
G1 X44.975 Y67.623 E.01314
G1 X44.975 Y71.681 E.12721
G1 X44.556 Y71.681 E.01314
G1 X44.556 Y67.623 E.12721
G1 X44.137 Y67.623 E.01314
G1 X44.137 Y71.681 E.12721
G1 X43.718 Y71.681 E.01314
G1 X43.718 Y67.623 E.12721
G1 X43.299 Y67.623 E.01314
G1 X43.299 Y71.681 E.12721
G1 X42.881 Y71.681 E.01314
G1 X42.881 Y67.623 E.12721
G1 X42.462 Y67.623 E.01314
G1 X42.462 Y71.681 E.12721
G1 X42.043 Y71.681 E.01314
G1 X42.043 Y67.623 E.12721
G1 X41.624 Y67.623 E.01314
G1 X41.624 Y71.681 E.12721
G1 X41.205 Y71.681 E.01314
G1 X41.205 Y67.623 E.12721
G1 X40.786 Y67.623 E.01314
G1 X40.786 Y71.681 E.12721
G1 X40.367 Y71.681 E.01314
G1 X40.367 Y67.623 E.12721
G1 X39.948 Y67.623 E.01314
G1 X39.948 Y71.681 E.12721
G1 X39.529 Y71.681 E.01314
G1 X39.529 Y67.623 E.12721
G1 X39.11 Y67.623 E.01314
G1 X39.11 Y71.681 E.12721
G1 X38.691 Y71.681 E.01314
G1 X38.691 Y67.623 E.12721
G1 X38.272 Y67.623 E.01314
G1 X38.272 Y71.681 E.12721
G1 X37.853 Y71.681 E.01314
G1 X37.853 Y67.623 E.12721
G1 X37.434 Y67.623 E.01314
G1 X37.434 Y71.681 E.12721
G1 X37.015 Y71.681 E.01314
G1 X37.015 Y67.623 E.12721
G1 X36.596 Y67.623 E.01314
G1 X36.596 Y71.681 E.12721
G1 X36.177 Y71.681 E.01314
G1 X36.177 Y67.623 E.12721
G1 X35.758 Y67.623 E.01314
G1 X35.758 Y71.681 E.12721
G1 X35.339 Y71.681 E.01314
G1 X35.339 Y67.623 E.12721
G1 X34.92 Y67.623 E.01314
G1 X34.92 Y71.681 E.12721
G1 X34.501 Y71.681 E.01314
G1 X34.501 Y67.454 E.13253
M204 S1000
;WIPE_START
G1 F8640
G1 X34.501 Y71.568 E-.95
;WIPE_END
G1 E-.05 F2100
G1 Z.4 F720
G1 X88.546 Y72.02 F10800
G1 Z.2 F720
G1 E1 F2100
M204 S800
G1 F1200
G1 X75.695 Y72.02 E.40294
G1 X75.695 Y67.284 E.14849
G1 X88.546 Y67.284 E.40294
G1 X88.546 Y71.963 E.14672
M204 S1000
G1 X88.13 Y71.85 F10800
M204 S800
G1 F1200
G1 X88.13 Y67.623 E.13253
G1 X87.711 Y67.623 E.01314
G1 X87.711 Y71.681 E.12721
G1 X87.292 Y71.681 E.01314
G1 X87.292 Y67.623 E.12721
G1 X86.873 Y67.623 E.01314
G1 X86.873 Y71.681 E.12721
G1 X86.454 Y71.681 E.01314
G1 X86.454 Y67.623 E.12721
G1 X86.035 Y67.623 E.01314
G1 X86.035 Y71.681 E.12721
G1 X85.616 Y71.681 E.01314
G1 X85.616 Y67.623 E.12721
G1 X85.197 Y67.623 E.01314
G1 X85.197 Y71.681 E.12721
G1 X84.778 Y71.681 E.01314
G1 X84.778 Y67.623 E.12721
G1 X84.359 Y67.623 E.01314
G1 X84.359 Y71.681 E.12721
G1 X83.94 Y71.681 E.01314
G1 X83.94 Y67.623 E.12721
G1 X83.521 Y67.623 E.01314
G1 X83.521 Y71.681 E.12721
G1 X83.102 Y71.681 E.01314
G1 X83.102 Y67.623 E.12721
G1 X82.683 Y67.623 E.01314
G1 X82.683 Y71.681 E.12721
G1 X82.264 Y71.681 E.01314
G1 X82.264 Y67.623 E.12721
G1 X81.845 Y67.623 E.01314
M73 P0 R200
G1 X81.845 Y71.681 E.12721
G1 X81.426 Y71.681 E.01314
G1 X81.426 Y67.623 E.12721
G1 X81.007 Y67.623 E.01314
G1 X81.007 Y71.681 E.12721
G1 X80.588 Y71.681 E.01314
G1 X80.588 Y67.623 E.12721
G1 X80.169 Y67.623 E.01314
G1 X80.169 Y71.681 E.12721
G1 X79.75 Y71.681 E.01314
G1 X79.75 Y67.623 E.12721
G1 X79.332 Y67.623 E.01314
G1 X79.332 Y71.681 E.12721
G1 X78.913 Y71.681 E.01314
G1 X78.913 Y67.623 E.12721
G1 X78.494 Y67.623 E.01314
G1 X78.494 Y71.681 E.12721
G1 X78.075 Y71.681 E.01314
G1 X78.075 Y67.623 E.12721
G1 X77.656 Y67.623 E.01314
G1 X77.656 Y71.681 E.12721
G1 X77.237 Y71.681 E.01314
G1 X77.237 Y67.623 E.12721
G1 X76.818 Y67.623 E.01314
G1 X76.818 Y71.681 E.12721
G1 X76.399 Y71.681 E.01314
G1 X76.399 Y67.454 E.13253
M204 S1000
;WIPE_START
G1 F8640
G1 X76.399 Y71.568 E-.95
;WIPE_END
G1 E-.05 F2100
G1 Z.4 F720
G1 X130.267 Y72.02 F10800
G1 Z.2 F720
G1 E1 F2100
M204 S800
G1 F1200
G1 X119.733 Y72.02 E.33026
G1 X119.733 Y67.284 E.14849
G1 X130.267 Y67.284 E.33026
G1 X130.267 Y71.963 E.14672
M204 S1000
G1 X129.609 Y71.85 F10800
M204 S800
G1 F1200
G1 X129.609 Y67.623 E.13253
G1 X129.19 Y67.623 E.01314
G1 X129.19 Y71.681 E.12721
G1 X128.771 Y71.681 E.01314
G1 X128.771 Y67.623 E.12721
G1 X128.352 Y67.623 E.01314
G1 X128.352 Y71.681 E.12721
G1 X127.933 Y71.681 E.01314
G1 X127.933 Y67.623 E.12721
G1 X127.514 Y67.623 E.01314
G1 X127.514 Y71.681 E.12721
G1 X127.095 Y71.681 E.01314
G1 X127.095 Y67.623 E.12721
G1 X126.676 Y67.623 E.01314
G1 X126.676 Y71.681 E.12721
G1 X126.257 Y71.681 E.01314
G1 X126.257 Y67.623 E.12721
G1 X125.838 Y67.623 E.01314
G1 X125.838 Y71.681 E.12721
G1 X125.419 Y71.681 E.01314
G1 X125.419 Y67.623 E.12721
G1 X125 Y67.623 E.01314
G1 X125 Y71.681 E.12721
G1 X124.581 Y71.681 E.01314
G1 X124.581 Y67.623 E.12721
G1 X124.162 Y67.623 E.01314
G1 X124.162 Y71.681 E.12721
G1 X123.743 Y71.681 E.01314
G1 X123.743 Y67.623 E.12721
G1 X123.324 Y67.623 E.01314
G1 X123.324 Y71.681 E.12721
G1 X122.905 Y71.681 E.01314
G1 X122.905 Y67.623 E.12721
G1 X122.486 Y67.623 E.01314
G1 X122.486 Y71.681 E.12721
G1 X122.067 Y71.681 E.01314
G1 X122.067 Y67.623 E.12721
G1 X121.648 Y67.623 E.01314
G1 X121.648 Y71.681 E.12721
G1 X121.229 Y71.681 E.01314
G1 X121.229 Y67.623 E.12721
G1 X120.81 Y67.623 E.01314
G1 X120.81 Y71.681 E.12721
G1 X120.391 Y71.681 E.01314
G1 X120.391 Y67.454 E.13253
M204 S1000
;WIPE_START
G1 F8640
G1 X120.391 Y71.568 E-.95
;WIPE_END
G1 E-.05 F2100
G1 Z.4 F720
G1 X174.305 Y72.02 F10800
G1 Z.2 F720
G1 E1 F2100
M204 S800
G1 F1200
G1 X161.454 Y72.02 E.40294
G1 X161.454 Y67.284 E.14849
G1 X174.305 Y67.284 E.40294
G1 X174.305 Y71.963 E.14672
M204 S1000
G1 X173.601 Y71.85 F10800
M204 S800
G1 F1200
G1 X173.601 Y67.623 E.13253
G1 X173.182 Y67.623 E.01314
G1 X173.182 Y71.681 E.12721
G1 X172.763 Y71.681 E.01314
G1 X172.763 Y67.623 E.12721
G1 X172.344 Y67.623 E.01314
G1 X172.344 Y71.681 E.12721
G1 X171.925 Y71.681 E.01314
G1 X171.925 Y67.623 E.12721
G1 X171.506 Y67.623 E.01314
G1 X171.506 Y71.681 E.12721
G1 X171.087 Y71.681 E.01314
G1 X171.087 Y67.623 E.12721
G1 X170.668 Y67.623 E.01314
G1 X170.668 Y71.681 E.12721
G1 X170.25 Y71.681 E.01314
G1 X170.25 Y67.623 E.12721
G1 X169.831 Y67.623 E.01314
G1 X169.831 Y71.681 E.12721
G1 X169.412 Y71.681 E.01314
G1 X169.412 Y67.623 E.12721
G1 X168.993 Y67.623 E.01314
G1 X168.993 Y71.681 E.12721
G1 X168.574 Y71.681 E.01314
G1 X168.574 Y67.623 E.12721
G1 X168.155 Y67.623 E.01314
G1 X168.155 Y71.681 E.12721
G1 X167.736 Y71.681 E.01314
G1 X167.736 Y67.623 E.12721
G1 X167.317 Y67.623 E.01314
G1 X167.317 Y71.681 E.12721
G1 X166.898 Y71.681 E.01314
G1 X166.898 Y67.623 E.12721
G1 X166.479 Y67.623 E.01314
G1 X166.479 Y71.681 E.12721
G1 X166.06 Y71.681 E.01314
G1 X166.06 Y67.623 E.12721
G1 X165.641 Y67.623 E.01314
G1 X165.641 Y71.681 E.12721
G1 X165.222 Y71.681 E.01314
G1 X165.222 Y67.623 E.12721
G1 X164.803 Y67.623 E.01314
G1 X164.803 Y71.681 E.12721
G1 X164.384 Y71.681 E.01314
G1 X164.384 Y67.623 E.12721
G1 X163.965 Y67.623 E.01314
G1 X163.965 Y71.681 E.12721
G1 X163.546 Y71.681 E.01314
G1 X163.546 Y67.623 E.12721
G1 X163.127 Y67.623 E.01314
G1 X163.127 Y71.681 E.12721
G1 X162.708 Y71.681 E.01314
G1 X162.708 Y67.623 E.12721
G1 X162.289 Y67.623 E.01314
G1 X162.289 Y71.681 E.12721
G1 X161.87 Y71.681 E.01314
G1 X161.87 Y67.454 E.13253
M204 S1000
;WIPE_START
G1 F8640
G1 X161.87 Y71.568 E-.95
;WIPE_END
G1 E-.05 F2100
G1 Z.4 F720
G1 X216.026 Y72.02 F10800
G1 Z.2 F720
G1 E1 F2100
M204 S800
G1 F1200
G1 X203.175 Y72.02 E.40294
G1 X203.175 Y67.284 E.14849
G1 X216.026 Y67.284 E.40294
G1 X216.026 Y71.963 E.14672
M204 S1000
G1 X215.499 Y71.85 F10800
M204 S800
G1 F1200
G1 X215.499 Y67.623 E.13253
G1 X215.08 Y67.623 E.01314
G1 X215.08 Y71.681 E.12721
G1 X214.661 Y71.681 E.01314
G1 X214.661 Y67.623 E.12721
G1 X214.242 Y67.623 E.01314
G1 X214.242 Y71.681 E.12721
G1 X213.823 Y71.681 E.01314
G1 X213.823 Y67.623 E.12721
G1 X213.404 Y67.623 E.01314
G1 X213.404 Y71.681 E.12721
G1 X212.985 Y71.681 E.01314
G1 X212.985 Y67.623 E.12721
G1 X212.566 Y67.623 E.01314
G1 X212.566 Y71.681 E.12721
G1 X212.147 Y71.681 E.01314
G1 X212.147 Y67.623 E.12721
G1 X211.728 Y67.623 E.01314
G1 X211.728 Y71.681 E.12721
G1 X211.309 Y71.681 E.01314
G1 X211.309 Y67.623 E.12721
G1 X210.89 Y67.623 E.01314
G1 X210.89 Y71.681 E.12721
G1 X210.471 Y71.681 E.01314
G1 X210.471 Y67.623 E.12721
G1 X210.052 Y67.623 E.01314
G1 X210.052 Y71.681 E.12721
G1 X209.633 Y71.681 E.01314
G1 X209.633 Y67.623 E.12721
G1 X209.214 Y67.623 E.01314
G1 X209.214 Y71.681 E.12721
G1 X208.795 Y71.681 E.01314
G1 X208.795 Y67.623 E.12721
G1 X208.376 Y67.623 E.01314
G1 X208.376 Y71.681 E.12721
G1 X207.957 Y71.681 E.01314
G1 X207.957 Y67.623 E.12721
G1 X207.538 Y67.623 E.01314
G1 X207.538 Y71.681 E.12721
G1 X207.119 Y71.681 E.01314
G1 X207.119 Y67.623 E.12721
G1 X206.701 Y67.623 E.01314
G1 X206.701 Y71.681 E.12721
G1 X206.282 Y71.681 E.01314
G1 X206.282 Y67.623 E.12721
G1 X205.863 Y67.623 E.01314
G1 X205.863 Y71.681 E.12721
G1 X205.444 Y71.681 E.01314
G1 X205.444 Y67.623 E.12721
G1 X205.025 Y67.623 E.01314
G1 X205.025 Y71.681 E.12721
G1 X204.606 Y71.681 E.01314
G1 X204.606 Y67.623 E.12721
G1 X204.187 Y67.623 E.01314
G1 X204.187 Y71.681 E.12721
G1 X203.768 Y71.681 E.01314
G1 X203.768 Y67.454 E.13253
M204 S1000
;WIPE_START
G1 F8640
G1 X203.768 Y71.568 E-.95
;WIPE_END
G1 E-.05 F2100
G1 Z.4 F720
G1 X216.026 Y142.716 F10800
G1 Z.2 F720
G1 E1 F2100
M204 S800
G1 F1200
G1 X203.175 Y142.716 E.40294
G1 X203.175 Y134.98 E.24256
G1 X216.026 Y134.98 E.40294
G1 X216.026 Y142.659 E.24078
M204 S1000
G1 X215.499 Y142.546 F10800
M204 S800
G1 F1200
G1 X215.499 Y135.319 E.22659
G1 X215.08 Y135.319 E.01314
G1 X215.08 Y142.377 E.22127
G1 X214.661 Y142.377 E.01314
G1 X214.661 Y135.319 E.22127
G1 X214.242 Y135.319 E.01314
G1 X214.242 Y142.377 E.22127
G1 X213.823 Y142.377 E.01314
G1 X213.823 Y135.319 E.22127
G1 X213.404 Y135.319 E.01314
G1 X213.404 Y142.377 E.22127
G1 X212.985 Y142.377 E.01314
G1 X212.985 Y135.319 E.22127
G1 X212.566 Y135.319 E.01314
G1 X212.566 Y142.377 E.22127
G1 X212.147 Y142.377 E.01314
G1 X212.147 Y135.319 E.22127
G1 X211.728 Y135.319 E.01314
G1 X211.728 Y142.377 E.22127
G1 X211.309 Y142.377 E.01314
M73 Q0 S201
G1 X211.309 Y135.319 E.22127
G1 X210.89 Y135.319 E.01314
G1 X210.89 Y142.377 E.22127
G1 X210.471 Y142.377 E.01314
G1 X210.471 Y135.319 E.22127
G1 X210.052 Y135.319 E.01314
G1 X210.052 Y142.377 E.22127
G1 X209.633 Y142.377 E.01314
G1 X209.633 Y135.319 E.22127
G1 X209.214 Y135.319 E.01314
G1 X209.214 Y142.377 E.22127
G1 X208.795 Y142.377 E.01314
G1 X208.795 Y135.319 E.22127
G1 X208.376 Y135.319 E.01314
G1 X208.376 Y142.377 E.22127
G1 X207.957 Y142.377 E.01314
G1 X207.957 Y135.319 E.22127
G1 X207.538 Y135.319 E.01314
G1 X207.538 Y142.377 E.22127
G1 X207.119 Y142.377 E.01314
G1 X207.119 Y135.319 E.22127
G1 X206.701 Y135.319 E.01314
G1 X206.701 Y142.377 E.22127
G1 X206.282 Y142.377 E.01314
G1 X206.282 Y135.319 E.22127
G1 X205.863 Y135.319 E.01314
G1 X205.863 Y142.377 E.22127
G1 X205.444 Y142.377 E.01314
G1 X205.444 Y135.319 E.22127
G1 X205.025 Y135.319 E.01314
G1 X205.025 Y142.377 E.22127
G1 X204.606 Y142.377 E.01314
G1 X204.606 Y135.319 E.22127
G1 X204.187 Y135.319 E.01314
G1 X204.187 Y142.377 E.22127
G1 X203.768 Y142.377 E.01314
G1 X203.768 Y135.15 E.22659
M204 S1000
;WIPE_START
G1 F8640
G1 X203.768 Y139.264 E-.95
;WIPE_END
G1 E-.05 F2100
G1 Z.4 F720
G1 X181.258 Y142.716 F10800
G1 Z.2 F720
G1 E1 F2100
M204 S800
G1 F1200
G1 X168.407 Y142.716 E.40294
G1 X168.407 Y134.98 E.24256
G1 X181.258 Y134.98 E.40294
G1 X181.258 Y142.659 E.24078
M204 S1000
G1 X180.724 Y142.546 F10800
M204 S800
G1 F1200
G1 X180.724 Y135.319 E.22659
G1 X180.305 Y135.319 E.01314
G1 X180.305 Y142.377 E.22127
G1 X179.886 Y142.377 E.01314
G1 X179.886 Y135.319 E.22127
G1 X179.467 Y135.319 E.01314
G1 X179.467 Y142.377 E.22127
G1 X179.048 Y142.377 E.01314
G1 X179.048 Y135.319 E.22127
G1 X178.629 Y135.319 E.01314
G1 X178.629 Y142.377 E.22127
G1 X178.21 Y142.377 E.01314
G1 X178.21 Y135.319 E.22127
G1 X177.791 Y135.319 E.01314
G1 X177.791 Y142.377 E.22127
G1 X177.372 Y142.377 E.01314
G1 X177.372 Y135.319 E.22127
G1 X176.953 Y135.319 E.01314
G1 X176.953 Y142.377 E.22127
G1 X176.534 Y142.377 E.01314
G1 X176.534 Y135.319 E.22127
G1 X176.115 Y135.319 E.01314
G1 X176.115 Y142.377 E.22127
G1 X175.696 Y142.377 E.01314
G1 X175.696 Y135.319 E.22127
G1 X175.277 Y135.319 E.01314
G1 X175.277 Y142.377 E.22127
G1 X174.858 Y142.377 E.01314
G1 X174.858 Y135.319 E.22127
G1 X174.439 Y135.319 E.01314
G1 X174.439 Y142.377 E.22127
G1 X174.02 Y142.377 E.01314
G1 X174.02 Y135.319 E.22127
G1 X173.601 Y135.319 E.01314
G1 X173.601 Y142.377 E.22127
G1 X173.182 Y142.377 E.01314
G1 X173.182 Y135.319 E.22127
G1 X172.763 Y135.319 E.01314
G1 X172.763 Y142.377 E.22127
G1 X172.344 Y142.377 E.01314
G1 X172.344 Y135.319 E.22127
G1 X171.925 Y135.319 E.01314
G1 X171.925 Y142.377 E.22127
G1 X171.506 Y142.377 E.01314
G1 X171.506 Y135.319 E.22127
G1 X171.087 Y135.319 E.01314
G1 X171.087 Y142.377 E.22127
G1 X170.668 Y142.377 E.01314
G1 X170.668 Y135.319 E.22127
G1 X170.25 Y135.319 E.01314
G1 X170.25 Y142.377 E.22127
G1 X169.831 Y142.377 E.01314
G1 X169.831 Y135.319 E.22127
G1 X169.412 Y135.319 E.01314
G1 X169.412 Y142.377 E.22127
G1 X168.993 Y142.377 E.01314
G1 X168.993 Y135.15 E.22659
M204 S1000
;WIPE_START
G1 F8640
G1 X168.993 Y139.264 E-.95
;WIPE_END
G1 E-.05 F2100
G1 Z.4 F720
G1 X81.593 Y142.716 F10800
G1 Z.2 F720
G1 E1 F2100
M204 S800
G1 F1200
G1 X68.742 Y142.716 E.40294
G1 X68.742 Y134.98 E.24256
M73 P0 R199
G1 X81.593 Y134.98 E.40294
G1 X81.593 Y142.659 E.24078
M204 S1000
G1 X81.007 Y142.546 F10800
M204 S800
G1 F1200
G1 X81.007 Y135.319 E.22659
G1 X80.588 Y135.319 E.01314
G1 X80.588 Y142.377 E.22127
G1 X80.169 Y142.377 E.01314
G1 X80.169 Y135.319 E.22127
