; generated by PrusaSlicer 2.5.0+win64 on 2022-10-03 at 06:44:34 UTC


;
;
; 

; external perimeters extrusion width = 0.45mm
; perimeters extrusion width = 0.45mm
; infill extrusion width = 0.45mm
; solid infill extrusion width = 0.45mm
; top infill extrusion width = 0.40mm
; support material extrusion width = 0.35mm
; first layer extrusion width = 0.42mm

M73 P0 R210
M73 Q0 S211
M201 X1000 Y1000 Z200 E5000 ; sets maximum accelerations, mm/sec^2
M203 X200 Y200 Z12 E120 ; sets maximum feedrates, mm / sec
M204 P1250 R1250 T1250 ; sets acceleration (P, T) and retract acceleration (R), mm/sec^2
M205 X8.00 Y8.00 Z0.40 E4.50 ; sets the jerk limits, mm/sec
M205 S0 T0 ; sets the minimum extruding and travel feed rate, mm/sec
M107
;TYPE:Custom
M862.3 P "MK3S" ; printer model check
M862.1 P0.4 ; nozzle diameter check
M115 U3.11.0 ; tell printer latest fw version
G90 ; use absolute coordinates
M83 ; extruder relative mode
M104 S230 ; set extruder temp
M140 S85 ; set bed temp
M190 S85 ; wait for bed temp
M109 S230 ; wait for extruder temp
G28 W ; home all without mesh bed level
G80 ; mesh bed leveling

G1 Z0.2 F720
G1 Y-3 F1000 ; go outside print area
G92 E0
G1 X60 E9 F1000 ; intro line
G1 X100 E12.5 F1000 ; intro line

G92 E0
M221 S95

; Don't change E values below. Excessive value can damage the printer.
M907 E430 ; set extruder motor current
G21 ; set units to millimeters
G90 ; use absolute coordinates
M83 ; use relative distances for extrusion
M900 K0.08 ; Filament gcode LA 1.5
M900 K45 ; Filament gcode LA 1.0
M107
;LAYER_CHANGE
;Z:0.2
;HEIGHT:0.2
;BEFORE_LAYER_CHANGE
G92 E0.0
;0.2


M73 P0 R209
G1 E-1 F2100
G1 Z.2 F720
;AFTER_LAYER_CHANGE
;0.2
G1 Z.4
G1 X29.252 Y56.746 F10800
G1 Z.2 F720
G1 E1 F2100
M204 S800
;TYPE:Skirt/Brim
;WIDTH:0.42
G1 F1200
G1 X30.434 Y56.431 E.03836
G1 X212.486 Y56.431 E5.70809
G1 X213.668 Y56.746 E.03836
G1 X222.767 Y61.962 E.32885
G1 X223.706 Y62.952 E.04278
G1 X223.962 Y64.024 E.03457
G1 X223.962 Y126.024 E1.94397
G1 X223.178 Y127.789 E.06054
G1 X214.079 Y136.005 E.3844
G1 X212.486 Y136.618 E.05352
G1 X30.434 Y136.618 E5.70809
G1 X28.841 Y136.005 E.05352
G1 X19.742 Y127.789 E.3844
G1 X18.958 Y126.024 E.06054
G1 X18.958 Y64.024 E1.94397
G1 X19.349 Y62.717 E.04278
G1 X20.153 Y61.962 E.03457
G1 X29.2 Y56.776 E.32697
M204 S1000
; printing object rear-case.stl id:0 copy 0
;WIPE_START
G1 F8640
G1 X30.434 Y56.431 E-.29588
G1 X33.267 Y56.431 E-.65412
;WIPE_END
G1 E-.05 F2100
G1 Z.4 F720
G1 X43.285 Y63.544 F10800
G1 Z.2 F720
G1 E1 F2100
M204 S800
;TYPE:Support material
G1 F1200
G1 X30.434 Y63.544 E.40294
G1 X30.434 Y58.809 E.14849
G1 X43.285 Y58.809 E.40294
G1 X43.285 Y63.488 E.14672
M204 S1000
G1 X42.692 Y63.375 F10800
M204 S800
G1 F1200
G1 X42.692 Y59.148 E.13253
G1 X42.273 Y59.148 E.01314
G1 X42.273 Y63.205 E.12721
G1 X41.854 Y63.205 E.01314
G1 X41.854 Y59.148 E.12721
G1 X41.435 Y59.148 E.01314
G1 X41.435 Y63.205 E.12721
G1 X41.016 Y63.205 E.01314
G1 X41.016 Y59.148 E.12721
G1 X40.597 Y59.148 E.01314
G1 X40.597 Y63.205 E.12721
G1 X40.178 Y63.205 E.01314
G1 X40.178 Y59.148 E.12721
G1 X39.759 Y59.148 E.01314
G1 X39.759 Y63.205 E.12721
G1 X39.34 Y63.205 E.01314
G1 X39.34 Y59.148 E.12721
G1 X38.921 Y59.148 E.01314
G1 X38.921 Y63.205 E.12721
G1 X38.503 Y63.205 E.01314
G1 X38.503 Y59.148 E.12721
G1 X38.084 Y59.148 E.01314
G1 X38.084 Y63.205 E.12721
G1 X37.665 Y63.205 E.01314
G1 X37.665 Y59.148 E.12721
G1 X37.246 Y59.148 E.01314
G1 X37.246 Y63.205 E.12721
G1 X36.827 Y63.205 E.01314
G1 X36.827 Y59.148 E.12721
G1 X36.408 Y59.148 E.01314
G1 X36.408 Y63.205 E.12721
G1 X35.989 Y63.205 E.01314
G1 X35.989 Y59.148 E.12721
G1 X35.57 Y59.148 E.01314
G1 X35.57 Y63.205 E.12721
G1 X35.151 Y63.205 E.01314
G1 X35.151 Y59.148 E.12721
G1 X34.732 Y59.148 E.01314
G1 X34.732 Y63.205 E.12721
G1 X34.313 Y63.205 E.01314
G1 X34.313 Y59.148 E.12721
G1 X33.894 Y59.148 E.01314
G1 X33.894 Y63.205 E.12721
G1 X33.475 Y63.205 E.01314
G1 X33.475 Y59.148 E.12721
G1 X33.056 Y59.148 E.01314
G1 X33.056 Y63.205 E.12721
G1 X32.637 Y63.205 E.01314
G1 X32.637 Y59.148 E.12721
G1 X32.218 Y59.148 E.01314
G1 X32.218 Y63.205 E.12721
G1 X31.799 Y63.205 E.01314
G1 X31.799 Y59.148 E.12721
G1 X31.38 Y59.148 E.01314
G1 X31.38 Y63.205 E.12721
G1 X30.961 Y63.205 E.01314
G1 X30.961 Y58.978 E.13253
M204 S1000
;WIPE_START
G1 F8640
G1 X30.961 Y63.092 E-.95
;WIPE_END
G1 E-.05 F2100
G1 Z.4 F720
G1 X85.006 Y63.544 F10800
G1 Z.2 F720
G1 E1 F2100
M204 S800
G1 F1200
G1 X72.155 Y63.544 E.40294
G1 X72.155 Y58.809 E.14849
G1 X85.006 Y58.809 E.40294
G1 X85.006 Y63.488 E.14672
M204 S1000
G1 X84.59 Y63.375 F10800
M204 S800
G1 F1200
G1 X84.59 Y59.148 E.13253
G1 X84.171 Y59.148 E.01314
G1 X84.171 Y63.205 E.12721
G1 X83.752 Y63.205 E.01314
G1 X83.752 Y59.148 E.12721
G1 X83.333 Y59.148 E.01314
G1 X83.333 Y63.205 E.12721
G1 X82.914 Y63.205 E.01314
G1 X82.914 Y59.148 E.12721
G1 X82.495 Y59.148 E.01314
G1 X82.495 Y63.205 E.12721
G1 X82.076 Y63.205 E.01314
G1 X82.076 Y59.148 E.12721
G1 X81.657 Y59.148 E.01314
G1 X81.657 Y63.205 E.12721
G1 X81.238 Y63.205 E.01314
G1 X81.238 Y59.148 E.12721
G1 X80.819 Y59.148 E.01314
G1 X80.819 Y63.205 E.12721
G1 X80.4 Y63.205 E.01314
G1 X80.4 Y59.148 E.12721
G1 X79.981 Y59.148 E.01314
G1 X79.981 Y63.205 E.12721
G1 X79.562 Y63.205 E.01314
G1 X79.562 Y59.148 E.12721
G1 X79.143 Y59.148 E.01314
G1 X79.143 Y63.205 E.12721
G1 X78.724 Y63.205 E.01314
G1 X78.724 Y59.148 E.12721
G1 X78.305 Y59.148 E.01314
G1 X78.305 Y63.205 E.12721
G1 X77.886 Y63.205 E.01314
G1 X77.886 Y59.148 E.12721
G1 X77.467 Y59.148 E.01314
G1 X77.467 Y63.205 E.12721
G1 X77.048 Y63.205 E.01314
G1 X77.048 Y59.148 E.12721
G1 X76.629 Y59.148 E.01314
G1 X76.629 Y63.205 E.12721
G1 X76.21 Y63.205 E.01314
G1 X76.21 Y59.148 E.12721
G1 X75.791 Y59.148 E.01314
G1 X75.791 Y63.205 E.12721
G1 X75.372 Y63.205 E.01314
G1 X75.372 Y59.148 E.12721
G1 X74.954 Y59.148 E.01314
G1 X74.954 Y63.205 E.12721
G1 X74.535 Y63.205 E.01314
G1 X74.535 Y59.148 E.12721
G1 X74.116 Y59.148 E.01314
G1 X74.116 Y63.205 E.12721
G1 X73.697 Y63.205 E.01314
M73 Q0 S210
G1 X73.697 Y59.148 E.12721
G1 X73.278 Y59.148 E.01314
G1 X73.278 Y63.205 E.12721
G1 X72.859 Y63.205 E.01314
G1 X72.859 Y58.978 E.13253
M204 S1000
;WIPE_START
G1 F8640
G1 X72.859 Y63.092 E-.95
;WIPE_END
G1 E-.05 F2100
G1 Z.4 F720
G1 X126.727 Y63.544 F10800
G1 Z.2 F720
G1 E1 F2100
M204 S800
G1 F1200
G1 X116.193 Y63.544 E.33026
G1 X116.193 Y58.809 E.14849
G1 X126.727 Y58.809 E.33026
G1 X126.727 Y63.488 E.14672
M204 S1000
G1 X126.069 Y63.375 F10800
M204 S800
G1 F1200
G1 X126.069 Y59.148 E.13253
G1 X125.65 Y59.148 E.01314
G1 X125.65 Y63.205 E.12721
G1 X125.231 Y63.205 E.01314
G1 X125.231 Y59.148 E.12721
G1 X124.812 Y59.148 E.01314
G1 X124.812 Y63.205 E.12721
G1 X124.393 Y63.205 E.01314
G1 X124.393 Y59.148 E.12721
G1 X123.974 Y59.148 E.01314
G1 X123.974 Y63.205 E.12721
G1 X123.555 Y63.205 E.01314
G1 X123.555 Y59.148 E.12721
G1 X123.136 Y59.148 E.01314
G1 X123.136 Y63.205 E.12721
G1 X122.717 Y63.205 E.01314
G1 X122.717 Y59.148 E.12721
G1 X122.298 Y59.148 E.01314
G1 X122.298 Y63.205 E.12721
G1 X121.879 Y63.205 E.01314
G1 X121.879 Y59.148 E.12721
G1 X121.46 Y59.148 E.01314
G1 X121.46 Y63.205 E.12721
G1 X121.041 Y63.205 E.01314
G1 X121.041 Y59.148 E.12721
G1 X120.622 Y59.148 E.01314
G1 X120.622 Y63.205 E.12721
G1 X120.203 Y63.205 E.01314
G1 X120.203 Y59.148 E.12721
G1 X119.784 Y59.148 E.01314
G1 X119.784 Y63.205 E.12721
G1 X119.365 Y63.205 E.01314
G1 X119.365 Y59.148 E.12721
G1 X118.946 Y59.148 E.01314
G1 X118.946 Y63.205 E.12721
G1 X118.527 Y63.205 E.01314
G1 X118.527 Y59.148 E.12721
G1 X118.108 Y59.148 E.01314
G1 X118.108 Y63.205 E.12721
G1 X117.689 Y63.205 E.01314
G1 X117.689 Y59.148 E.12721
G1 X117.27 Y59.148 E.01314
G1 X117.27 Y63.205 E.12721
G1 X116.851 Y63.205 E.01314
G1 X116.851 Y58.978 E.13253
M204 S1000
;WIPE_START
G1 F8640
G1 X116.851 Y63.092 E-.95
;WIPE_END
G1 E-.05 F2100
G1 Z.4 F720
G1 X170.765 Y63.544 F10800
G1 Z.2 F720
G1 E1 F2100
M204 S800
G1 F1200
G1 X157.914 Y63.544 E.40294
G1 X157.914 Y58.809 E.14849
G1 X170.765 Y58.809 E.40294
G1 X170.765 Y63.488 E.14672
M204 S1000
M73 P0 R208
G1 X170.061 Y63.375 F10800
M204 S800
G1 F1200
G1 X170.061 Y59.148 E.13253
G1 X169.642 Y59.148 E.01314
G1 X169.642 Y63.205 E.12721
G1 X169.223 Y63.205 E.01314
G1 X169.223 Y59.148 E.12721
G1 X168.804 Y59.148 E.01314
G1 X168.804 Y63.205 E.12721
G1 X168.385 Y63.205 E.01314
G1 X168.385 Y59.148 E.12721
G1 X167.966 Y59.148 E.01314
G1 X167.966 Y63.205 E.12721
G1 X167.547 Y63.205 E.01314
G1 X167.547 Y59.148 E.12721
G1 X167.128 Y59.148 E.01314
G1 X167.128 Y63.205 E.12721
G1 X166.709 Y63.205 E.01314
G1 X166.709 Y59.148 E.12721
G1 X166.291 Y59.148 E.01314
G1 X166.291 Y63.205 E.12721
G1 X165.872 Y63.205 E.01314
G1 X165.872 Y59.148 E.12721
G1 X165.453 Y59.148 E.01314
G1 X165.453 Y63.205 E.12721
G1 X165.034 Y63.205 E.01314
G1 X165.034 Y59.148 E.12721
G1 X164.615 Y59.148 E.01314
G1 X164.615 Y63.205 E.12721
G1 X164.196 Y63.205 E.01314
G1 X164.196 Y59.148 E.12721
G1 X163.777 Y59.148 E.01314
G1 X163.777 Y63.205 E.12721
G1 X163.358 Y63.205 E.01314
G1 X163.358 Y59.148 E.12721
G1 X162.939 Y59.148 E.01314
G1 X162.939 Y63.205 E.12721
G1 X162.52 Y63.205 E.01314
G1 X162.52 Y59.148 E.12721
G1 X162.101 Y59.148 E.01314
G1 X162.101 Y63.205 E.12721
G1 X161.682 Y63.205 E.01314
G1 X161.682 Y59.148 E.12721
G1 X161.263 Y59.148 E.01314
G1 X161.263 Y63.205 E.12721
G1 X160.844 Y63.205 E.01314
G1 X160.844 Y59.148 E.12721
G1 X160.425 Y59.148 E.01314
G1 X160.425 Y63.205 E.12721
G1 X160.006 Y63.205 E.01314
G1 X160.006 Y59.148 E.12721
G1 X159.587 Y59.148 E.01314
G1 X159.587 Y63.205 E.12721
G1 X159.168 Y63.205 E.01314
G1 X159.168 Y59.148 E.12721
G1 X158.749 Y59.148 E.01314
G1 X158.749 Y63.205 E.12721
G1 X158.33 Y63.205 E.01314
G1 X158.33 Y58.978 E.13253
M204 S1000
;WIPE_START
G1 F8640
G1 X158.33 Y63.092 E-.95
;WIPE_END
G1 E-.05 F2100
G1 Z.4 F720
G1 X212.486 Y63.544 F10800
G1 Z.2 F720
G1 E1 F2100
M204 S800
G1 F1200
G1 X199.635 Y63.544 E.40294
G1 X199.635 Y58.809 E.14849
G1 X212.486 Y58.809 E.40294
G1 X212.486 Y63.488 E.14672
M204 S1000
G1 X211.959 Y63.375 F10800
M204 S800
G1 F1200
G1 X211.959 Y59.148 E.13253
G1 X211.54 Y59.148 E.01314
G1 X211.54 Y63.205 E.12721
G1 X211.121 Y63.205 E.01314
G1 X211.121 Y59.148 E.12721
G1 X210.702 Y59.148 E.01314
G1 X210.702 Y63.205 E.12721
G1 X210.283 Y63.205 E.01314
G1 X210.283 Y59.148 E.12721
G1 X209.864 Y59.148 E.01314
G1 X209.864 Y63.205 E.12721
G1 X209.445 Y63.205 E.01314
G1 X209.445 Y59.148 E.12721
G1 X209.026 Y59.148 E.01314
G1 X209.026 Y63.205 E.12721
G1 X208.607 Y63.205 E.01314
G1 X208.607 Y59.148 E.12721
G1 X208.188 Y59.148 E.01314
G1 X208.188 Y63.205 E.12721
G1 X207.769 Y63.205 E.01314
G1 X207.769 Y59.148 E.12721
G1 X207.35 Y59.148 E.01314
G1 X207.35 Y63.205 E.12721
G1 X206.931 Y63.205 E.01314
G1 X206.931 Y59.148 E.12721
G1 X206.512 Y59.148 E.01314
G1 X206.512 Y63.205 E.12721
G1 X206.093 Y63.205 E.01314
G1 X206.093 Y59.148 E.12721
G1 X205.674 Y59.148 E.01314
G1 X205.674 Y63.205 E.12721
G1 X205.255 Y63.205 E.01314
G1 X205.255 Y59.148 E.12721
G1 X204.836 Y59.148 E.01314
G1 X204.836 Y63.205 E.12721
G1 X204.417 Y63.205 E.01314
G1 X204.417 Y59.148 E.12721
G1 X203.998 Y59.148 E.01314
G1 X203.998 Y63.205 E.12721
G1 X203.579 Y63.205 E.01314
G1 X203.579 Y59.148 E.12721
G1 X203.16 Y59.148 E.01314
G1 X203.16 Y63.205 E.12721
G1 X202.742 Y63.205 E.01314
G1 X202.742 Y59.148 E.12721
G1 X202.323 Y59.148 E.01314
G1 X202.323 Y63.205 E.12721
G1 X201.904 Y63.205 E.01314
G1 X201.904 Y59.148 E.12721
G1 X201.485 Y59.148 E.01314
G1 X201.485 Y63.205 E.12721
G1 X201.066 Y63.205 E.01314
G1 X201.066 Y59.148 E.12721
G1 X200.647 Y59.148 E.01314
G1 X200.647 Y63.205 E.12721
G1 X200.228 Y63.205 E.01314
G1 X200.228 Y58.978 E.13253
M204 S1000
;WIPE_START
G1 F8640
G1 X200.228 Y63.092 E-.95
;WIPE_END
G1 E-.05 F2100
G1 Z.4 F720
G1 X212.486 Y134.24 F10800
G1 Z.2 F720
G1 E1 F2100
M204 S800
G1 F1200
G1 X199.635 Y134.24 E.40294
G1 X199.635 Y126.504 E.24256
G1 X212.486 Y126.504 E.40294
G1 X212.486 Y134.184 E.24078
M204 S1000
G1 X211.959 Y134.071 F10800
M204 S800
G1 F1200
G1 X211.959 Y126.844 E.22659
G1 X211.54 Y126.844 E.01314
G1 X211.54 Y133.901 E.22127
G1 X211.121 Y133.901 E.01314
G1 X211.121 Y126.844 E.22127
G1 X210.702 Y126.844 E.01314
G1 X210.702 Y133.901 E.22127
G1 X210.283 Y133.901 E.01314
G1 X210.283 Y126.844 E.22127
G1 X209.864 Y126.844 E.01314
G1 X209.864 Y133.901 E.22127
G1 X209.445 Y133.901 E.01314
G1 X209.445 Y126.844 E.22127
G1 X209.026 Y126.844 E.01314
G1 X209.026 Y133.901 E.22127
G1 X208.607 Y133.901 E.01314
G1 X208.607 Y126.844 E.22127
G1 X208.188 Y126.844 E.01314
G1 X208.188 Y133.901 E.22127
G1 X207.769 Y133.901 E.01314
G1 X207.769 Y126.844 E.22127
G1 X207.35 Y126.844 E.01314
G1 X207.35 Y133.901 E.22127
G1 X206.931 Y133.901 E.01314
G1 X206.931 Y126.844 E.22127
G1 X206.512 Y126.844 E.01314
G1 X206.512 Y133.901 E.22127
G1 X206.093 Y133.901 E.01314
G1 X206.093 Y126.844 E.22127
G1 X205.674 Y126.844 E.01314
G1 X205.674 Y133.901 E.22127
G1 X205.255 Y133.901 E.01314
G1 X205.255 Y126.844 E.22127
G1 X204.836 Y126.844 E.01314
G1 X204.836 Y133.901 E.22127
G1 X204.417 Y133.901 E.01314
G1 X204.417 Y126.844 E.22127
G1 X203.998 Y126.844 E.01314
G1 X203.998 Y133.901 E.22127
G1 X203.579 Y133.901 E.01314
G1 X203.579 Y126.844 E.22127
G1 X203.16 Y126.844 E.01314
G1 X203.16 Y133.901 E.22127
G1 X202.741 Y133.901 E.01314
G1 X202.741 Y126.844 E.22127
G1 X202.323 Y126.844 E.01314
G1 X202.323 Y133.901 E.22127
G1 X201.904 Y133.901 E.01314
G1 X201.904 Y126.844 E.22127
G1 X201.485 Y126.844 E.01314
G1 X201.485 Y133.901 E.22127
G1 X201.066 Y133.901 E.01314
G1 X201.066 Y126.844 E.22127
G1 X200.647 Y126.844 E.01314
G1 X200.647 Y133.901 E.22127
G1 X200.228 Y133.901 E.01314
G1 X200.228 Y126.674 E.22659
M204 S1000
;WIPE_START
G1 F8640
G1 X200.228 Y130.788 E-.95
;WIPE_END
G1 E-.05 F2100
G1 Z.4 F720
G1 X177.718 Y134.24 F10800
G1 Z.2 F720
G1 E1 F2100
M204 S800
G1 F1200
G1 X164.867 Y134.24 E.40294
G1 X164.867 Y126.504 E.24256
G1 X177.718 Y126.504 E.40294
G1 X177.718 Y134.184 E.24078
M204 S1000
G1 X177.184 Y134.071 F10800
M204 S800
G1 F1200
G1 X177.184 Y126.844 E.22659
G1 X176.765 Y126.844 E.01314
G1 X176.765 Y133.901 E.22127
G1 X176.346 Y133.901 E.01314
G1 X176.346 Y126.844 E.22127
G1 X175.927 Y126.844 E.01314
G1 X175.927 Y133.901 E.22127
G1 X175.508 Y133.901 E.01314
G1 X175.508 Y126.844 E.22127
G1 X175.089 Y126.844 E.01314
G1 X175.089 Y133.901 E.22127
G1 X174.67 Y133.901 E.01314
G1 X174.67 Y126.844 E.22127
G1 X174.251 Y126.844 E.01314
G1 X174.251 Y133.901 E.22127
G1 X173.832 Y133.901 E.01314
G1 X173.832 Y126.844 E.22127
G1 X173.413 Y126.844 E.01314
G1 X173.413 Y133.901 E.22127
G1 X172.994 Y133.901 E.01314
G1 X172.994 Y126.844 E.22127
G1 X172.575 Y126.844 E.01314
G1 X172.575 Y133.901 E.22127
G1 X172.156 Y133.901 E.01314
G1 X172.156 Y126.844 E.22127
G1 X171.737 Y126.844 E.01314
G1 X171.737 Y133.901 E.22127
G1 X171.318 Y133.901 E.01314
G1 X171.318 Y126.844 E.22127
G1 X170.899 Y126.844 E.01314
G1 X170.899 Y133.901 E.22127
G1 X170.48 Y133.901 E.01314
G1 X170.48 Y126.844 E.22127
G1 X170.061 Y126.844 E.01314
G1 X170.061 Y133.901 E.22127
G1 X169.642 Y133.901 E.01314
G1 X169.642 Y126.844 E.22127
G1 X169.223 Y126.844 E.01314
G1 X169.223 Y133.901 E.22127
G1 X168.804 Y133.901 E.01314
G1 X168.804 Y126.844 E.22127
G1 X168.385 Y126.844 E.01314
G1 X168.385 Y133.901 E.22127
G1 X167.966 Y133.901 E.01314
G1 X167.966 Y126.844 E.22127
G1 X167.547 Y126.844 E.01314
G1 X167.547 Y133.901 E.22127
G1 X167.128 Y133.901 E.01314
G1 X167.128 Y126.844 E.22127
G1 X166.709 Y126.844 E.01314
G1 X166.709 Y133.901 E.22127
G1 X166.29 Y133.901 E.01314
G1 X166.29 Y126.844 E.22127
G1 X165.872 Y126.844 E.01314
G1 X165.872 Y133.901 E.22127
G1 X165.453 Y133.901 E.01314
G1 X165.453 Y126.674 E.22659
M204 S1000
;WIPE_START
G1 F8640
G1 X165.453 Y130.788 E-.95
;WIPE_END
G1 E-.05 F2100
G1 Z.4 F720
G1 X78.053 Y134.24 F10800
G1 Z.2 F720
G1 E1 F2100
M204 S800
G1 F1200
G1 X65.202 Y134.24 E.40294
G1 X65.202 Y126.504 E.24256
G1 X78.053 Y126.504 E.40294
G1 X78.053 Y134.184 E.24078
M204 S1000
G1 X77.467 Y134.071 F10800
M204 S800
M73 Q0 S209
G1 F1200
G1 X77.467 Y126.844 E.22659
G1 X77.048 Y126.844 E.01314
G1 X77.048 Y133.901 E.22127
G1 X76.629 Y133.901 E.01314
