; generated by PrusaSlicer 2.5.0+win64 on 2022-10-07 at 09:28:56 UTC


;
;
; 

; external perimeters extrusion width = 0.60mm
; perimeters extrusion width = 0.50mm
; infill extrusion width = 0.50mm
; solid infill extrusion width = 0.50mm
; top infill extrusion width = 0.45mm
; first layer extrusion width = 0.42mm

M73 P0 R50
M73 Q0 S51
M201 X1000 Y1000 Z200 E5000 ; sets maximum accelerations, mm/sec^2
M203 X200 Y200 Z12 E120 ; sets maximum feedrates, mm / sec
M204 P1250 R1250 T1250 ; sets acceleration (P, T) and retract acceleration (R), mm/sec^2
M205 X8.00 Y8.00 Z0.40 E4.50 ; sets the jerk limits, mm/sec
M205 S0 T0 ; sets the minimum extruding and travel feed rate, mm/sec
M107
;TYPE:Custom
M862.3 P "MK3S" ; printer model check
M862.1 P0.4 ; nozzle diameter check
M115 U3.11.0 ; tell printer latest fw version
G90 ; use absolute coordinates
M83 ; extruder relative mode
M104 S230 ; set extruder temp
M140 S85 ; set bed temp
M190 S85 ; wait for bed temp
M109 S230 ; wait for extruder temp
G28 W ; home all without mesh bed level
G80 ; mesh bed leveling

G1 Z0.2 F720
G1 Y-3 F1000 ; go outside print area
G92 E0
G1 X60 E9 F1000 ; intro line
G1 X100 E12.5 F1000 ; intro line

G92 E0
M221 S95

; Don't change E values below. Excessive value can damage the printer.

M907 E538 ; set extruder motor current
G21 ; set units to millimeters
G90 ; use absolute coordinates
M83 ; use relative distances for extrusion
M900 K0.08 ; Filament gcode LA 1.5
M900 K45 ; Filament gcode LA 1.0
M107
;LAYER_CHANGE
;Z:0.2
;HEIGHT:0.2
;BEFORE_LAYER_CHANGE
G92 E0.0
;0.2


G1 E-1 F2100
G1 Z.2 F720
;AFTER_LAYER_CHANGE
;0.2
G1 Z.4
G1 X64.14 Y74.068 F10800
G1 Z.2 F720
G1 E1 F2100
M204 S800
;TYPE:Skirt/Brim
;WIDTH:0.42
G1 F1200
G1 X65.185 Y73.192 E.04278
G1 X66.125 Y72.998 E.03008
G1 X183.875 Y72.998 E3.69197
G1 X185.182 Y73.39 E.04278
M73 Q0 S50
G1 X186.058 Y74.435 E.04278
G1 X186.252 Y75.375 E.03008
G1 X186.252 Y119.625 E1.38743
G1 X186.072 Y122.117 E.07834
G1 X185.716 Y123.904 E.05712
G1 X184.951 Y126.221 E.07651
G1 X184.172 Y127.868 E.05712
G1 X182.867 Y129.929 E.07651
G1 X181.711 Y131.337 E.05712
G1 X179.944 Y133.02 E.07651
G1 X178.48 Y134.105 E.05712
G1 X176.252 Y135.358 E.08016
G1 X173.989 Y136.232 E.07605
G1 X172.322 Y136.656 E.05393
G1 X170.636 Y136.912 E.05347
G1 X168.933 Y137.001 E.05347
G1 X81.125 Y137.002 E2.75317
G1 X79.48 Y136.923 E.05164
G1 X77.678 Y136.656 E.05712
G1 X75.216 Y135.966 E.08016
G1 X72.985 Y134.977 E.07651
G1 X70.833 Y133.625 E.0797
G1 X69.413 Y132.461 E.05758
G1 X67.73 Y130.694 E.07651
G1 X66.645 Y129.23 E.05712
G1 X65.392 Y127.002 E.08016
G1 X64.518 Y124.739 E.07605
G1 X64.094 Y123.072 E.05393
G1 X63.838 Y121.386 E.05347
G1 X63.748 Y119.625 E.05529
G1 X63.748 Y75.375 E1.38743
G1 X64.122 Y74.125 E.0409
M204 S1000
; printing object test-platine.stl id:0 copy 0
;WIPE_START
G1 F8640
G1 X65.185 Y73.192 E-.32671
G1 X66.125 Y72.998 E-.22155
G1 X67.865 Y72.998 E-.40174
;WIPE_END
G1 E-.05 F2100
G1 Z.4 F720
G1 X90.577 Y123.973 F10800
G1 Z.2 F720
G1 E1 F2100
M204 S800
;TYPE:Perimeter
;WIDTH:0.419999
G1 F1200
G1 X89.994 Y125.078 E.03917
G1 X89.441 Y125.889 E.03078
G1 X88.776 Y126.686 E.03254
G1 X88.035 Y127.413 E.03254
G1 X87.226 Y128.062 E.03254
G1 X86.355 Y128.627 E.03254
G1 X85.433 Y129.104 E.03254
G1 X84.468 Y129.485 E.03254
G1 X83.469 Y129.769 E.03254
G1 X82.448 Y129.952 E.03254
G1 X81.413 Y130.033 E.03254
G1 X80.569 Y130.014 E.02648
G1 X79.556 Y129.91 E.03192
G1 X78.558 Y129.707 E.03192
G1 X77.586 Y129.407 E.03192
G1 X76.647 Y129.014 E.03192
G1 X75.751 Y128.531 E.03191
G1 X74.914 Y127.968 E.03163
G1 X74.121 Y127.315 E.03219
G1 X73.403 Y126.593 E.03191
G1 X72.76 Y125.805 E.03191
G1 X72.196 Y124.958 E.03191
G1 X71.717 Y124.059 E.03193
G1 X71.329 Y123.119 E.03188
G1 X71.168 Y122.667 E.01505
G1 X70.926 Y121.716 E.03078
G1 X70.763 Y120.647 E.03388
G1 X70.726 Y120.142 E.01587
G1 X70.728 Y119.078 E.03338
G1 X70.826 Y118.101 E.03078
G1 X71.029 Y117.083 E.03254
G1 X71.332 Y116.091 E.03254
G1 X71.732 Y115.133 E.03254
G1 X72.226 Y114.22 E.03254
G1 X72.809 Y113.361 E.03254
G1 X73.474 Y112.564 E.03254
G1 X74.215 Y111.837 E.03254
G1 X75.024 Y111.188 E.03254
G1 X75.895 Y110.623 E.03254
G1 X76.664 Y110.225 E.02714
G1 X77.591 Y109.84 E.03148
G1 X78.56 Y109.543 E.03178
G1 X79.07 Y109.427 E.01638
G1 X79.562 Y109.34 E.01567
G1 X80.106 Y109.272 E.01721
G1 X80.837 Y109.217 E.02298
G1 X81.624 Y109.234 E.02466
G1 X82.178 Y109.276 E.01743
G1 X82.905 Y109.367 E.02298
G1 X83.694 Y109.544 E.02536
G1 X84.179 Y109.68 E.01578
G1 X84.903 Y109.923 E.02393
G1 X85.693 Y110.276 E.02714
G1 X86.64 Y110.8 E.03394
G1 X87.54 Y111.428 E.03442
G1 X88.374 Y112.152 E.03463
G1 X89.076 Y112.904 E.03226
G1 X89.661 Y113.67 E.03021
G1 X90.182 Y114.502 E.03077
G1 X90.629 Y115.391 E.03121
G1 X90.993 Y116.33 E.03156
G1 X91.267 Y117.308 E.03185
G1 X91.372 Y117.828 E.01664
G1 X91.482 Y118.56 E.02321
G1 X91.524 Y119.108 E.01722
G1 X91.525 Y120.098 E.03104
G1 X91.449 Y120.904 E.02539
G1 X91.368 Y121.441 E.01704
G1 X91.221 Y122.167 E.02322
G1 X90.981 Y122.957 E.02589
G1 X90.601 Y123.918 E.03241
M204 S1000
G1 X90.241 Y123.803 F10800
M204 S800
;TYPE:External perimeter
G1 F1200
G1 X89.683 Y124.866 E.03762
G1 X89.13 Y125.677 E.03078
G1 X88.487 Y126.444 E.03137
G1 X87.772 Y127.143 E.03137
G1 X86.99 Y127.767 E.03137
G1 X86.151 Y128.311 E.03137
G1 X85.261 Y128.768 E.03137
G1 X84.33 Y129.134 E.03137
G1 X83.367 Y129.406 E.03137
G1 X82.382 Y129.581 E.03137
G1 X81.385 Y129.657 E.03137
G1 X80.578 Y129.637 E.0253
G1 X79.603 Y129.535 E.03074
G1 X78.642 Y129.339 E.03074
G1 X77.706 Y129.05 E.03074
G1 X76.802 Y128.67 E.03074
G1 X75.939 Y128.204 E.03073
G1 X75.134 Y127.662 E.03045
G1 X74.371 Y127.032 E.03101
G1 X73.68 Y126.337 E.03073
G1 X73.06 Y125.577 E.03073
G1 X72.518 Y124.761 E.03073
G1 X72.057 Y123.895 E.03075
G1 X71.684 Y122.99 E.0307
G1 X71.4 Y122.052 E.03073
G1 X71.21 Y121.09 E.03075
G1 X71.102 Y120.115 E.03075
G1 X71.103 Y119.115 E.03133
G1 X71.201 Y118.139 E.03078
G1 X71.398 Y117.158 E.03137
M73 Q1 S50
G1 X71.692 Y116.202 E.03137
G1 X72.08 Y115.28 E.03137
G1 X72.557 Y114.4 E.03137
M73 P1 R50
G1 X73.12 Y113.573 E.03137
G1 X73.763 Y112.806 E.03137
G1 X74.478 Y112.107 E.03137
G1 X75.26 Y111.483 E.03137
G1 X76.099 Y110.939 E.03137
G1 X76.836 Y110.561 E.02596
G1 X77.729 Y110.191 E.0303
G1 X78.662 Y109.906 E.0306
G1 X79.627 Y109.712 E.03087
G1 X80.135 Y109.648 E.01603
G1 X80.865 Y109.593 E.02298
G1 X81.614 Y109.611 E.02348
G1 X82.131 Y109.65 E.01625
G1 X82.858 Y109.741 E.02298
G1 X83.61 Y109.912 E.02418
G1 X84.587 Y110.215 E.03208
G1 X85.538 Y110.62 E.03239
G1 X86.451 Y111.127 E.03276
G1 X87.32 Y111.735 E.03324
G1 X88.125 Y112.435 E.03345
G1 X88.8 Y113.161 E.03108
G1 X89.36 Y113.898 E.02903
G1 X89.861 Y114.698 E.0296
G1 X90.289 Y115.555 E.03003
G1 X90.639 Y116.459 E.03038
G1 X90.901 Y117.401 E.03067
G1 X91.072 Y118.373 E.03093
G1 X91.137 Y118.994 E.01959
G1 X91.148 Y120.097 E.0346
G1 X91.074 Y120.866 E.02422
G1 X90.999 Y121.366 E.01586
G1 X90.852 Y122.092 E.02322
G1 X90.62 Y122.845 E.02471
G1 X90.263 Y123.747 E.03043
M204 S1000
G1 X90.47 Y124.131 F10800
;WIPE_START
G1 F8640
G1 X89.683 Y124.866 E-.29086
G1 X89.13 Y125.677 E-.22665
G1 X88.487 Y126.444 E-.231
G1 X87.863 Y127.053 E-.20149
;WIPE_END
G1 E-.05 F2100
G1 Z.4 F720
G1 X81.394 Y100.77 F10800
G1 Z.2 F720
G1 E1 F2100
M204 S800
;TYPE:Perimeter
G1 F1200
G1 X80.375 Y100.759 E.03194
G1 X79.587 Y100.664 E.02489
G1 X79.058 Y100.571 E.01686
G1 X78.332 Y100.405 E.02333
G1 X77.542 Y100.143 E.0261
G1 X76.557 Y99.724 E.03356
G1 X75.5 Y99.136 E.03792
G1 X74.656 Y98.533 E.03254
G1 X73.876 Y97.848 E.03254
G1 X73.167 Y97.089 E.03254
G1 X72.539 Y96.263 E.03254
G1 X71.995 Y95.379 E.03254
G1 X71.542 Y94.445 E.03254
G1 X71.184 Y93.471 E.03254
G1 X70.926 Y92.466 E.03254
G1 X70.768 Y91.44 E.03254
G1 X70.726 Y90.892 E.01722
G1 X70.725 Y89.884 E.03162
G1 X70.826 Y88.851 E.03254
G1 X71.029 Y87.833 E.03254
G1 X71.332 Y86.841 E.03254
G1 X71.732 Y85.883 E.03254
G1 X72.226 Y84.97 E.03254
G1 X72.809 Y84.111 E.03254
G1 X73.474 Y83.314 E.03254
G1 X74.215 Y82.587 E.03254
G1 X75.024 Y81.938 E.03254
G1 X75.895 Y81.373 E.03254
G1 X76.817 Y80.896 E.03254
G1 X77.782 Y80.515 E.03254
G1 X78.781 Y80.231 E.03254
G1 X79.802 Y80.048 E.03254
G1 X80.837 Y79.967 E.03254
G1 X81.875 Y79.991 E.03254
G1 X82.905 Y80.117 E.03254
G1 X83.918 Y80.345 E.03254
G1 X84.902 Y80.673 E.03254
G1 X85.85 Y81.097 E.03254
G1 X86.75 Y81.614 E.03254
G1 X87.594 Y82.217 E.03254
G1 X88.374 Y82.902 E.03254
G1 X89.083 Y83.661 E.03254
G1 X89.711 Y84.487 E.03254
G1 X90.255 Y85.371 E.03254
G1 X90.629 Y86.141 E.02685
G1 X90.993 Y87.08 E.03156
G1 X91.267 Y88.058 E.03185
G1 X91.372 Y88.578 E.01664
G1 X91.482 Y89.31 E.02321
G1 X91.524 Y89.858 E.01722
G1 X91.525 Y90.848 E.03104
G1 X91.449 Y91.654 E.02539
G1 X91.368 Y92.191 E.01704
G1 X91.221 Y92.917 E.02322
G1 X90.918 Y93.909 E.03254
G1 X90.588 Y94.7 E.02685
G1 X90.09 Y95.657 E.03384
G1 X89.488 Y96.57 E.03428
G1 X88.782 Y97.429 E.03487
G1 X88.035 Y98.163 E.03283
G1 X87.278 Y98.77 E.03045
G1 X86.462 Y99.309 E.03065
G1 X85.586 Y99.775 E.03111
G1 X84.659 Y100.16 E.03148
G1 X83.69 Y100.457 E.03178
G1 X83.18 Y100.573 E.01638
G1 X82.448 Y100.702 E.02333
G1 X81.454 Y100.769 E.03124
M204 S1000
G1 X81.385 Y100.407 F10800
M204 S800
;TYPE:External perimeter
G1 F1200
G1 X80.636 Y100.389 E.02348
G1 X80.119 Y100.35 E.01625
G1 X79.392 Y100.259 E.02298
G1 X78.64 Y100.088 E.02418
G1 X77.662 Y99.785 E.03208
G1 X76.712 Y99.38 E.03239
G1 X75.689 Y98.81 E.03675
G1 X74.876 Y98.226 E.03137
G1 X74.125 Y97.565 E.03137
G1 X73.444 Y96.832 E.03137
G1 X72.839 Y96.036 E.03137
G1 X72.317 Y95.182 E.03137
G1 X71.882 Y94.282 E.03137
G1 X71.539 Y93.342 E.03137
G1 X71.291 Y92.373 E.03137
G1 X71.141 Y91.384 E.03136
G1 X71.102 Y90.865 E.01632
G1 X71.102 Y89.884 E.03075
G1 X71.201 Y88.889 E.03136
G1 X71.398 Y87.908 E.03137
G1 X71.692 Y86.952 E.03137
G1 X72.08 Y86.03 E.03137
G1 X72.557 Y85.15 E.03137
G1 X73.12 Y84.323 E.03137
G1 X73.763 Y83.556 E.03137
G1 X74.478 Y82.857 E.03137
G1 X75.26 Y82.233 E.03137
G1 X76.099 Y81.689 E.03137
G1 X76.989 Y81.232 E.03137
G1 X77.92 Y80.866 E.03137
G1 X78.883 Y80.594 E.03137
G1 X79.868 Y80.419 E.03137
G1 X80.865 Y80.343 E.03137
G1 X81.866 Y80.368 E.03137
G1 X82.858 Y80.491 E.03137
G1 X83.834 Y80.713 E.03137
G1 X84.782 Y81.03 E.03137
G1 X85.695 Y81.441 E.03137
G1 X86.561 Y81.94 E.03137
G1 X87.374 Y82.524 E.03137
G1 X88.125 Y83.185 E.03137
G1 X88.806 Y83.918 E.03137
G1 X89.411 Y84.714 E.03137
G1 X89.933 Y85.568 E.03137
G1 X90.289 Y86.305 E.02567
G1 X90.639 Y87.209 E.03038
G1 X90.901 Y88.151 E.03067
G1 X91.072 Y89.123 E.03093
G1 X91.137 Y89.744 E.01959
G1 X91.148 Y90.847 E.0346
G1 X91.074 Y91.616 E.02422
G1 X90.999 Y92.116 E.01586
G1 X90.852 Y92.842 E.02322
G1 X90.558 Y93.798 E.03137
G1 X90.241 Y94.553 E.02567
G1 X89.759 Y95.477 E.03266
G1 X89.177 Y96.358 E.03311
G1 X88.493 Y97.187 E.03369
G1 X87.772 Y97.893 E.03165
G1 X87.043 Y98.476 E.02927
G1 X86.257 Y98.992 E.02947
G1 X85.414 Y99.439 E.02993
G1 X84.521 Y99.809 E.0303
G1 X83.588 Y100.094 E.03061
G1 X82.623 Y100.288 E.03087
G1 X82.115 Y100.352 E.01603
G1 X81.444 Y100.402 E.0211
M204 S1000
G1 X81.19 Y100.756 F10800
;WIPE_START
G1 F8640
G1 X80.636 Y100.389 E-.18672
G1 X80.119 Y100.35 E-.1197
G1 X79.392 Y100.259 E-.16922
G1 X78.64 Y100.088 E-.17809
G1 X77.662 Y99.785 E-.23623
G1 X77.423 Y99.683 E-.06004
;WIPE_END
G1 E-.05 F2100
G1 Z.4 F720
G1 X101.822 Y96.303 F10800
G1 Z.2 F720
G1 E1 F2100
M204 S800
;TYPE:Perimeter
G1 F1200
G1 X101.318 Y95.498 E.02976
G1 X100.871 Y94.609 E.03121
G1 X100.507 Y93.67 E.03156
G1 X100.233 Y92.692 E.03185
G1 X100.128 Y92.172 E.01664
G1 X100.018 Y91.44 E.02321
G1 X99.976 Y90.892 E.01722
G1 X99.975 Y89.902 E.03104
G1 X100.051 Y89.096 E.02539
G1 X100.132 Y88.559 E.01704
G1 X100.279 Y87.833 E.02322
G1 X100.519 Y87.043 E.02589
G1 X100.912 Y86.05 E.03348
G1 X101.506 Y84.922 E.03998
G1 X102.059 Y84.111 E.03078
G1 X102.724 Y83.314 E.03254
G1 X103.465 Y82.587 E.03254
G1 X104.274 Y81.938 E.03254
G1 X105.145 Y81.373 E.03254
G1 X106.067 Y80.896 E.03254
G1 X107.032 Y80.515 E.03254
G1 X108.031 Y80.231 E.03254
G1 X109.052 Y80.048 E.03254
G1 X110.087 Y79.967 E.03254
G1 X111.125 Y79.991 E.03254
G1 X112.155 Y80.117 E.03254
G1 X113.168 Y80.345 E.03254
G1 X114.152 Y80.673 E.03254
G1 X115.1 Y81.097 E.03254
G1 X116 Y81.614 E.03254
G1 X116.844 Y82.217 E.03254
G1 X117.624 Y82.902 E.03254
G1 X118.333 Y83.661 E.03254
G1 X118.961 Y84.487 E.03254
G1 X119.505 Y85.371 E.03254
G1 X119.986 Y86.373 E.03484
G1 X120.316 Y87.279 E.03025
G1 X120.574 Y88.284 E.03254
G1 X120.732 Y89.31 E.03254
G1 X120.786 Y90.347 E.03254
G1 X120.738 Y91.384 E.03254
G1 X120.586 Y92.41 E.03254
G1 X120.332 Y93.417 E.03254
G1 X119.98 Y94.393 E.03254
G1 X119.532 Y95.33 E.03254
G1 X118.993 Y96.217 E.03254
G1 X118.369 Y97.046 E.03254
G1 X118.006 Y97.458 E.01722
G1 X117.285 Y98.163 E.03162
G1 X116.528 Y98.77 E.03044
G1 X115.712 Y99.309 E.03065
G1 X114.836 Y99.775 E.03111
G1 X113.909 Y100.16 E.03148
G1 X112.94 Y100.457 E.03178
G1 X112.43 Y100.573 E.01638
G1 X111.698 Y100.702 E.02333
G1 X110.914 Y100.764 E.02466
G1 X110.354 Y100.778 E.01755
G1 X109.625 Y100.759 E.02286
G1 X108.837 Y100.664 E.02489
G1 X108.308 Y100.571 E.01686
G1 X107.582 Y100.405 E.02333
G1 X106.792 Y100.143 E.0261
G1 X105.807 Y99.724 E.03356
G1 X104.86 Y99.2 E.03394
G1 X103.96 Y98.572 E.03441
G1 X103.126 Y97.848 E.03463
G1 X102.424 Y97.096 E.03226
G1 X101.856 Y96.352 E.02934
M204 S1000
G1 X102.14 Y96.102 F10800
M204 S800
;TYPE:External perimeter
G1 F1200
G1 X101.639 Y95.302 E.0296
G1 X101.211 Y94.445 E.03003
G1 X100.861 Y93.541 E.03038
G1 X100.599 Y92.599 E.03067
G1 X100.428 Y91.627 E.03093
G1 X100.363 Y91.006 E.01959
G1 X100.352 Y89.903 E.0346
G1 X100.426 Y89.134 E.02421
G1 X100.501 Y88.634 E.01586
G1 X100.648 Y87.908 E.02322
G1 X100.88 Y87.155 E.02471
G1 X101.259 Y86.197 E.0323
G1 X101.817 Y85.134 E.03762
G1 X102.37 Y84.323 E.03078
G1 X103.013 Y83.556 E.03137
G1 X103.728 Y82.857 E.03137
G1 X104.51 Y82.233 E.03137
G1 X105.349 Y81.689 E.03137
G1 X106.239 Y81.232 E.03137
G1 X107.17 Y80.866 E.03137
G1 X108.133 Y80.594 E.03137
G1 X109.118 Y80.419 E.03137
G1 X110.115 Y80.343 E.03137
G1 X111.116 Y80.368 E.03137
G1 X112.108 Y80.491 E.03137
G1 X113.084 Y80.713 E.03137
G1 X114.032 Y81.03 E.03137
G1 X114.945 Y81.441 E.03137
G1 X115.811 Y81.94 E.03137
G1 X116.624 Y82.524 E.03137
G1 X117.375 Y83.185 E.03137
G1 X118.056 Y83.918 E.03137
G1 X118.661 Y84.714 E.03137
G1 X119.183 Y85.568 E.03137
G1 X119.631 Y86.502 E.03248
G1 X119.961 Y87.408 E.03025
G1 X120.209 Y88.377 E.03136
G1 X120.359 Y89.366 E.03137
G1 X120.41 Y90.366 E.03137
G1 X120.361 Y91.365 E.03137
G1 X120.213 Y92.354 E.03137
G1 X119.967 Y93.324 E.03137
G1 X119.626 Y94.264 E.03137
G1 X119.192 Y95.166 E.03137
G1 X118.671 Y96.02 E.03137
G1 X118.068 Y96.818 E.03136
G1 X117.724 Y97.208 E.01632
G1 X117.022 Y97.893 E.03075
G1 X116.293 Y98.476 E.02927
G1 X115.507 Y98.992 E.02947
G1 X114.664 Y99.439 E.02993
G1 X113.771 Y99.809 E.0303
G1 X112.838 Y100.094 E.03061
G1 X111.873 Y100.288 E.03087
G1 X111.365 Y100.352 E.01603
G1 X110.635 Y100.407 E.02298
G1 X109.886 Y100.389 E.02348
G1 X109.369 Y100.35 E.01625
G1 X108.642 Y100.259 E.02298
G1 X107.89 Y100.088 E.02418
G1 X106.912 Y99.785 E.03208
G1 X105.962 Y99.38 E.03239
G1 X105.048 Y98.873 E.03276
G1 X104.18 Y98.265 E.03324
G1 X103.375 Y97.565 E.03345
G1 X102.7 Y96.839 E.03108
G1 X102.176 Y96.15 E.02715
M204 S1000
G1 X101.741 Y96.135 F10800
;WIPE_START
G1 F8640
G1 X101.639 Y95.302 E-.23175
G1 X101.211 Y94.445 E-.22116
G1 X100.861 Y93.541 E-.22373
G1 X100.599 Y92.599 E-.22588
G1 X100.563 Y92.397 E-.04748
;WIPE_END
G1 E-.05 F2100
G1 Z.4 F720
G1 X130.03 Y94.412 F10800
G1 Z.2 F720
G1 E1 F2100
M204 S800
;TYPE:Perimeter
G1 F1200
G1 X129.684 Y93.471 E.03144
G1 X129.426 Y92.466 E.03254
G1 X129.268 Y91.44 E.03254
G1 X129.214 Y90.403 E.03254
G1 X129.262 Y89.366 E.03254
G1 X129.414 Y88.34 E.03254
G1 X129.668 Y87.333 E.03254
G1 X130.015 Y86.371 E.03207
G1 X130.238 Y85.871 E.01717
G1 X130.756 Y84.922 E.03389
G1 X131.309 Y84.111 E.03078
G1 X131.974 Y83.314 E.03254
G1 X132.715 Y82.587 E.03254
G1 X133.524 Y81.938 E.03254
G1 X134.395 Y81.373 E.03254
G1 X135.317 Y80.896 E.03254
G1 X136.282 Y80.515 E.03254
